/* XPM */
static char *out[] = {
/* columns rows colors chars-per-pixel */
"64 64 60 1 ",
"  c #3327A2",
". c #202900",
"X c #1D1D21",
"o c #2E1026",
"O c #222323",
"+ c #372423",
"@ c #2D3136",
"# c #3B303C",
"$ c #5E0711",
"% c #721C03",
"& c #49251C",
"* c #453125",
"= c #583126",
"- c #49283D",
"; c #53393A",
": c #733D3B",
"> c #614A3C",
", c #282B4A",
"< c #3B3855",
"1 c #5A3C45",
"2 c #434549",
"3 c #48474D",
"4 c #5E4646",
"5 c #7C4B47",
"6 c #725A51",
"7 c #77535B",
"8 c #7E6144",
"9 c #56506F",
"0 c #5B5C69",
"q c #75686E",
"w c #626871",
"e c #73737F",
"r c #82211D",
"t c #B63C35",
"y c #885041",
"u c #945D4F",
"i c #9A624C",
"p c #997951",
"a c #AD6E51",
"s c #A96D58",
"d c #91606A",
"f c #9E8C79",
"g c #C7826C",
"h c #CE9770",
"j c #D89F75",
"k c #E59A7C",
"l c #EDB67C",
"z c #AD7984",
"x c #848795",
"c c #828B98",
"v c #B98C93",
"b c #AEA189",
"n c #ABAEBE",
"m c #D5A39A",
"M c #FBAA84",
"N c #CCC3B1",
"B c #BAC7DB",
"V c #EADBC9",
"C c #EBF0F6",
"Z c #F5F7FA",
/* pixels */
"                                                                ",
"                                                                ",
"                                                                ",
"                                                                ",
"                                                                ",
"                                                                ",
"                                                                ",
"                                                                ",
"                                                                ",
"                                                                ",
"                                                                ",
"                                                                ",
"                                                                ",
"                                                                ",
"                                                                ",
"                                                                ",
"                               ++                               ",
"                              +aa*                              ",
"                              +zz*                              ",
"                             o+MM;+                             ",
"                           ++*o>uuz;+                           ",
"                         o-pa*4;;azzz;o                         ",
"                        o6psh=+oo-5lzzp-                        ",
"                        -asg1+++++++gzz;                        ",
"                       -aag1-++++++++gzz;                       ",
"                      Opah11+++-&+++++mpz*                      ",
"                      Oap1=1+&--==-++o+zz*                      ",
"                      -aa--14----==&+oovz;                      ",
"                     Opa4&*47y------=oo=zp*                     ",
"                    X+pp--=5yy------4-oozz4<                    ",
"                   X3.ap&-15yy5oo+--+=+ozz3b0                   ",
"                   oO@ap+*1:7*-&-oo-+=+XpzqBo                   ",
"                  X20#aa+=41-51uu-+oo+-opzeNx2                  ",
"                  X30<ai+=4&+uuuuu-+oo=odzeNx2                  ",
"                  X3,#a8+1++yuuuuu--oooo7zqwx2                  ",
"                  XOw2p7+++o=======ooooo>zeB2<                  ",
"                   ,f2p6daaasppppppzzpzp>zwC9                   ",
"                   Xe<s647hhhhhhhhhhhhhp>zOc,                   ",
"                    X+a*BBoappzzzzzzzd;>7p*X                    ",
"                     o7frN$ooooooooooooodp*                     ",
"                     o-%rr$o**=11441oooopp*                     ",
"                     X*rrr3o11115555ooo+aa*                     ",
"                     o4$tr3x+111:555+oooaa*                     ",
"                     op4CZ$$+1147y75-oooaz*                     ",
"                     o7aeVf$o+++====+ooop4X                     ",
"                      #apexqoooooooooooap4                      ",
"                     @9lp=appppppppppp+ple9                     ",
"                    O,2@ppipappppppppiap,w@<                    ",
"                     @e0la*jjjjjjjjjj;plxbo                     ",
"                     ,ee<zaooooooooooipOnf2                     ",
"                     Oe0Ovppppassappppv<3e<                     ",
"                      oefXphlllllllkg7XNfo                      ",
"                      ,fnw,ooooooooooX0Bx<                      ",
"                       ,e,XoXXoooXXooX<x@                       ",
"                        Xo  oooooooo  oX                        ",
"                                                                ",
"                                                                ",
"                                                                ",
"                                                                ",
"                                                                ",
"                                                                ",
"                                                                ",
"                                                                ",
"                                                                "
};
