/* XPM */
static char *cave_exit[] = {
"64 64 16 1 ",
"  c black",
". c #111111",
"X c #3B2D1F",
"o c #222222",
"O c gray20",
"+ c #444444",
"@ c #555555",
"# c gray40",
"- c #7EC8E3",
"* c #FFD700",
"= c #006994",
"$ c #FFFFFF",
"% c #FFA500",
"~ c #E2C275",
"& c #2E8B57",
"^ c #1CA3EC",
/* pixels */
". O  OooOOooOo+o.oo##.oo .#.X##Oo+..     O#.o  O.o.oOooOoooOO.  ",
"O     ooooo.O.o@oOoo#@oo  O+##.oOO.    .ooOooo.o OOo+OOoOoo.o   ",
".     .oo.OOooooOoooo@o  o.O#OOOo.    o..oOoOOo o+O.oooOO.o..   ",
"       o..ooOoo...oOOo  .OoO@Oooo.   .o.oOooOo+ .Oo.OoOOooO..   ",
".        ..O+oooo.ooo.+O.oo@O@+Oo    .o.oOooOoOo Ooo+ooooOo.    ",
"         o.o+OoooO..o O+ooOOoo+@.   .oo..OooOoO..O.O+oOOo. .    ",
"         .o.OOooo .oo.++OOoOoooOo . .o o#oooOoOo oooOoOOoo      ",
"    .o    .OO+..o..oOOo. .oooOoooo .O..+#oOOOoO+oooOOOOOoo .    ",
"   ....O   .              O      .  .. .oXOoo.  .     .. .      ",
"OoO@+OO@OO.OOO@  o .    . .        X###########@@Oo.   .        ",
". oO.o.o.O+@@+oO++Oo+o+oXXX+OOoOoo.oOO###@+OOO+OOO+Oooo      .oO",
"O@OoO+OOo++X+X+++#O oo@..@O@+OoooOo  +#@.OOo.. . .OOO..      OO.",
"Oo.o.oOoo+@##o#ooo+.XOo.oOo.oooo.oo.O#O.OOo..oo.oooOo. .      oO",
"oo.. oOOooOOOo+O@o@oXXOoooo..oOoo.oo+#.oooo o.....o+O.. .    OOo",
"oo.o o+o.oOOo +o@OO ++@O.o..oO.oo...#O.oooooo.... .Oo....   .OXO",
"ooo..  ....ooo  oO  @oX..  .o.     o#...    .      o.       o @+",
"o..ooo.o...oOo X  .. +Ooo.  --------  ...o         .        O.oo",
".ooOOo.oo.oooo #+X#X.. o  ------------  OOO.oooO         . .Oo@.",
"....o.oO..ooOo #OX#ooo  ----------------  oooooOo. oo.  .  oo.o.",
"...Oo.o... ..  +X@#.  --------------------  .ooOo.ooo....  .+.o.",
".....oo. o.   O#o+  ------------------------  oOooo.oOo.oo. .  .",
"o...X...o .oOOO@  ------------%**%--------------  oooo.....    .",
"....XOOo...o.o +  ----------%******%------------  oO..  .oo     ",
"o    .oo....o +#  ---------%**$$$$**%-----------  .ooo...ooo    ",
"oo..o      .  #X  ---------%**$$$$**%-----------  oo.o.oo..o    ",
"o.XooX.oo... +@   ---------%**$$$$**%-----------  o..o.o...  .  ",
".oo.ooooo.   oO.  ---------%**$$$$**%-----------  ooOo.o.oo..o..",
" ooooO.....   .+  ----------%******%------------  oooo.oo... .  ",
"  ooo......  ..   ------------%**%--------------  ooOoO........ ",
"o. o..o...  .X.X  ------------------------------  ooo.  .... ...",
"Oooooo......OX@#  ------------------------------  ..Ooo  .  .  .",
"+..oO.........@@  ------------------------------  ooO..o .... ..",
"oo.oo.o...o.. Oo  ------------------------------  .o.o.....  .o.",
"o.oo@ooooo. .  .  ===^^^^======$$$$======~~~&&==  o........  o.o",
"oOoo+o  O+O+O++   ======^^======$$======~~&&&&==  @........o.o  ",
".oOoo. oo.ooooOo  ============$$==$$====~~~&&===  .oO.o..  ..  O",
"ooOoO .o.  ooo.o  ====^^^======$$$$=======^^====  ..O.oo....o.oO",
"O.OOO.oo.  ..  o  ==============$$=====^^=======  .ooooo....ooO ",
"OoOO.oo..    .OO  ========^^===$$==$$===========  o..  .    o.o.",
"o+.OOO+oo+.+##++  ==============$$=======^^^====  +OO .OO@o.  o ",
"@#++@#@Oo+oOo.Oo  ====^^=======$$$$=============  #O+O.+++OO+@+O",
"o...o+o .o....o+  ==============$$=====^^=======  o#oo. O...ooOO",
"oo. O+...o..o...  ========^^===$$==$$===========  o#oo..OoooOo.o",
"ooo.o+o.o..o...o  ==============$$=======^^^====  ooooooooo..O  ",
"..ooooo.O.oo....  ====^^=======$$$$=============  .oooooOO...o  ",
"...oooOo.oo .. .  ==============$$=====^^=======  oooo.oOoooo. +",
"++ooo.OO..o ..    ========^^==$$====$$==========  ooooOoooO.  #o",
"+OOO.OO+Oo.oo..o  =============$$$$======^^^====  oo+#@+     ooO",
"+oo+ooo.OO.o..o.  ==============$$==============  .oo.+##       ",
"++oOOo.oOoOo.oo.  ====^^=======$$==$$===========  .o..O+@  o.OX+",
"@OoOOOoOooOO.o..  ==============$$=====^^=======  Oo.o.+#o... oX",
"@OOo+o+oo... ooo  ========^^===$$$$=============  o. ++..o  oXXO",
" Xoooo@X+OO+o     =============$$==$$====^^^====  ..@o.oo ooX#.o",
" .O@oO+OO#+OO@@O  ==============$$==============  o#...o OX##XX.",
". .ooOoooooooo++  ====^^======$$====$$==========  .O# ..ooo#@@#@",
"    .OO.oOoo.oo+  =============$$$$======^^=======  .ooo+#OoO+X++ ",
"      .OOOo.ooo+  ==============$$==============  O...O#Xoooo+o ",
"o        oo.oooo  ========^^===$$==$$===========  ..@Ooo. O.o.oo",
"XX   +o. .ooOooo  =============$$$$======^^^====  #+#..oooo.oooO",
"XXoXO+ooo .o.o.o  ==============$$==============  O.@#+ o.O#.ooo",
". X. oOoOooo..Oo  ====^^======$$====$$==========  o+O.o.Oo.ooo@X",
"ooX   OooO+Ooooo  =============$$$$=============  ooO oooooo.O+o",
"OXoXOooOoO+++ooo  ==============$$======^^======  oooo@. .... +O",
".XX.+OoOOOXooO.o  =============$$$$=============  @Ooo.o ###. .."
};