/* XPM */
static char *out[] = {
/* columns rows colors chars-per-pixel */
"64 64 8 1 ",
"  c black",
". c #111111",
"X c #222222",
"o c gray20",
"O c #444444",
"+ c #555555",
"@ c gray40",
"# c #777777",
/* pixels */
".@+O++++++O+OOOOXoo..O...oXXXo. XoooXoX XXooooo+XX OOoOOOOOOo.+X",
"XooXoooXX.XXo... ooO@######OoOOOooooOO.ooooOOOOOO@ o@OOOO+OOOXXo",
" .X.XX .X.O.oo. .oOO+O+@###oXO++OO+OOoXXoOooooOOO+ .OO+++OO++OXX",
"XOO++OOO+OOOOOooXX+OOO++++#OoOOOO+OOOo Xoooooooo+O..oOO++OOO++OX",
".ooOOOOOOOOO+OOXXO+OOOO++++X.O+OOOOOOo OOOooooOO+O.XoO+O+OOOO+OX",
"XoooOO+++OOOOOOo.+OOOOO++O+.X+O+OO+OooXXXOoOOOOoOO.XOOOoO+OOOOoo",
" OoooO++O@++OOO@ ++O@OO+OO+.oOOOO+OOOo.OOOOOOOOO+OX.OO++O++OOOo ",
"XOoOOOOOO@+O++O  #OO+@@+OO@ ooOO+OOOOo.+OOOO++OO++X.OoOOOOOooOo.",
"X@OOOoO+O+OOOOO.o#OOOO@oOO+X+OO+OOOO+O ++o+O+OOOO+ .OoO+OOoooooX",
"X+oOOOOO+@+OO+O.o+OOOOOOOO+XOOOOOOOoOOXXoOOOOOO+++. Oo++OOOOo+oX",
"XOoOOOOO@+OO+++  +OOOOO+++#.XoOOOOooOoooo@+OoOOO+@. OOOOOOOOO+oX",
"XOoOo+#@O++OOO+  OOoOOO+O++ XoOOOOOooX..OOOOOOO+@+  OoOOOO+OOoo ",
".OOO@#O+OO+OOO+  ooOOOoOOO+XXXoXoOooXoXo.X.X.X.     ooOOOOOOOoXX",
"XO++#@++OOOOOOO  ooOoooOOoOoX XX  X .OX++@ooo+++oOO .o.XooOOooo.",
"XooOO++++OOOO+o  XooOooooX@.XOOooXOooOX+O++OOOOO+@O ... . X   Xo",
"O X.XXXXXoXooXXX.oOOOooOXo@ o@+OO+O+++oXOOoooOooOOO.X.X.oXOooooo",
"Xo+  ..Ooo+OX.X.. X. XX+ooX o@@O+OOO+O+XOOOoOOoOOOO .oOOooOOoOOX",
"OXOXXooOoXOXX.X+  XooOO+OoX.O@++++++OOOOoOOoOOOOO++. OOooooOoXo+",
"XO+++++OOOOOOo.o. @++++OoOo O+O@+#+O++oOOXoOoOO++@@X oOooOooOX+o",
" O+++OOOOOOOOOXX..+OOO+oXOO o#+O++++O++ oO+oOOOO++@..OoooOOOXo@+",
".++++OOOOOOOOO+XXo+OOO+OXOO O@#@+++OO++XoO@O++OOOO+ X+XXoo+oo@#@",
" O+++OOOO+OOO++oXoO+OOOOoOo X+##+++O++@X O+OOOOO++O XOOOo+Oo+@@+",
" O+++++O+++++++o X+OO+OOoooXX@+#OOOO+O+..OooOoOOO+O.oOoO+Oo@+O+X",
" O+O+OOO+O+++O+o .@OOOOooooX XOOoOO+O++ .o+oOOOOO++.O+OO+o++++O.",
"XOOoO+OOO++OOO+O .OO+OOoooX .  Xo.oXO+o.XX+OOOoO+OO.X@OOO+++Oo..",
"XoOOOOOOOOooOO+oOoOOOOOOoO+.X ....X++OX.XX@oOOoO+++. oo.oXoooXOO",
"+OOOO+OOooO+OO+OooOooooOOO+ ..OOO+O+OoO. XOO+OoO++@X    . X.X+O+",
"oOOOO#oOOo++OO+oo@ooooOoO+oXX oOOOOOOOO. o++OOOOO@@X.@#@@@@+@@OX",
"O+OOO+OO+OO@oOO. ooOoOOOoOo o OOoO+oOOOXoX@+OOOO+@+X @@@@OoOO@#o",
"XXoOXXXXoXoooX. @OOOOOOO+OO o Ooo+OoOOOX .O+OOO+@+O. @#OooooO+@+",
"#. OX  . oX    XoXOOO+OO++O . OOOoXO+OOX.O@+ooOOOOO. O@OOOo+O+@o",
"oOooOoooO+OOOO+oX.+OOOOOOOO.  o++o+++OOo @OXXX..   XX@@oooo++O@o",
".@+oOOOO+++@@++oXXOOOOOO+OOo..OOOoO++OOO o@XXoXOXXXXX@@ooooo+O#O",
".o+OOO++OO+OO++.XXoOooOOO@O...O+oOoOOO+O. oOO++OO+@oXO+oooOooO#o",
" oO+++@++++++O+X OoooooOOOo X.OOoOO+oOOO.oOOOOOOo+@XXO@ooooooO#X",
" X++++O+@+++++OO.@O...X OX  XO+OOOOOO+oOXO@OOOOOoOoXOO+Oooooo+@X",
" O@@++O+@@+O+OOo  oXoOOo+oOo.XoOOOoOOOOO.o+O+OOOO+OX.X+oooooo+@O",
".O++++++++OOOOoo  ##OOooOO@O  oOOOoOOOOO. O+OOOooOO..O+ooOoOO@@X",
" o++++++++OOOOoO  #+OOOOOO@o  XoO+oo++Oo.X++OOOO+Oo. o@+Oo+@+@O ",
"XX+O++++OOOOOOOO  @oOOOO+O@o.OX  .  ..   .++O+++OOo. o@+O@@#@#O.",
"oo+O++++OOO++o#O.X#OOOOOOO@o.X.oXooXXoOXXO+OO++OOOo.. .. oXXoOX.",
" OOO++++OOO+ooooXO@O+OOOOO@o .O+@@@@+@@@+oOOO++O+OOX.oOO+oO+oXXX",
" .XXXX.X.XXXX.X  .#OOOOOOo@O X+o@#@@@@+#o OOOO++OOOoXXOO+@OOOOOX",
"  o.oX oXXO +oo OX@OOOoooo@o .#@@@+@++O@o oO+OooOOOO#XOoO+OOoXOX",
"XX+O+O++++OO++ooX @OoooooO+o  +@@OOO++OO.XOOOooOOOOO XOOOO++OoO ",
" X+OO++O++OO++++.X@@OOOO@#@X  ++++@++OO@..oOOOO++O+# oOOOOO+OoOX",
".XOoOOOOOOOO+OO+XXoXo.X...  . @++OO@+O+@XXXXXoXXXooX.O+OOOoOOooo",
"XXOo++Oo+o+++O+O.X+XX.        +++OO++@++X.Xo.oo.....XO+OOOOOoOo.",
"XoOOOOOOoOOOO+O+. OooooOOXX   O@+@@#@##+XXo@@@#++@+o.OOoOOOOooo ",
" OXooO+OO+OO++++XOOOOO+OooOX  o@@@@++++X  o@++O+O+Oo oOO+OOOOOOX",
".XOo+O++OO+O++++oOOOOO+OooO.  XX   .O    ..##O+OoOOO.oOO+OOOO++.",
"X#o XX.X..XXooooXoOOOO++ooo Xooo.XXoooo.X.o#@@+OOOO@.oO+O++OO+OX",
" O.X oooX.oXo...Xo+O+OOOooo.X.oOOOO++O+oo X#++@@@O++.o+@++@@+OOX",
" X@OO+++O+OO++@+oO++O+OOoooXXXoOOOoo++OOO..@@+@##O++ ....XXX.X..",
".o#OooO@@O+OOOOOXO++O+OooOXXXXOOoXo++OOOO .@##@#@++@.XXXXXOX.oX.",
"Oooo+OO#OO+++O+O.X+O++OoooX X XOOoOOOOOOO  +@#@@@++#.X++++@@++oX",
" ooOOOOOOOOOOOOo.X+OOOOOOOo  .o+OOOOO+OOO  ++@+@@+O+X+OOOOO+O#o ",
".ooOOOOOOoOO@+Oooo@OOOOOOOO  ooOOOOoO++OO. +O++@+OOo.++O++OOO#o ",
".oOOOoOOoooO+OOoO+oO+OOOOOO.oXo+oOOOOOO+O. +++OOOOOo +@++OOOO@O ",
" oooooOOOoOOOOOoO+oOOOOOOOOX OoO+OOOOOOOO.X+O++OOOOo.++++OOoo@o ",
"XOoOoO++++OOOOOOXXOOOooOOOOOX X@O+OOOOOOO..+++++OO#X.XOOOOOO@@o ",
".+oooO++++OOOOoOXXOOoooooOOX XOOO+OOOO+OoXo+OO+OOO+ooOoOOO+@+OX.",
".+ooOOO+OOOOOOoo. OoOoO+OO#o O+OO@+OOOO+X .XXXXo.XX o+Xo X     X",
"o+oo++++OOOO+o+@. XXXoXXoXo..XXO+OO++OOXXo OX+.ooXX.o@ooX.XX..o."
};
