/* XPM */
static char *out[] = {
/* columns rows colors chars-per-pixel */
"64 64 8 1 ",
"  c black",
". c #3B2D1F",
"X c #573B3B",
"o c #73573B",
"O c #7E6E60",
"+ c #8E7657",
"@ c #C5A078",
"# c #E3C7AB",
/* pixels */
"o+++++++++o+o+@+++++o++@++o+++o+++ooooooo++oo+ooo+o+o+oo+oO.X+++",
"+@++@+++++++@+o+@@@@+@@+++@@o+++@@+o+o@+++++++@o+@+o@@++@@o+O@@o",
"@@Oo+oO+++++@+o+@+@++@O@@+@.o+o+o+o.+o++@@+o++@@@@+ooo++@+o.X+@+",
"@@+O+oO+++++++++++O+@@o@@@.X@@++oo. o+@@ooooo+@@o++@O+@+oo..X@@+",
"o..o+++++o++@@++++Ooo...+o.++++++o..oO++...oO@@Oo+ooO@@Ooo.oO++o",
"@X..o++o+@++@@+@++@@@X..  .++@++++.o++++++@+@@++@@+@@@o.@oX.OO@@",
". .o++OX@@+o++@+oo@o. ..o.o++@@@. ..O+++@@@++oo+o....  .....oO+o",
"..o+++oo@++++@+.o+. ....o.o....o .oo+Oo@+ooo..++...o. .oo+.oO++ ",
"..oo+o.ooooo++..oo....oo... ... ..oo+++@@+oo..Xo..oo..o++o.o++o.",
"..... ..o......oo  ...+oo+o..o...o..O++++o. ..OO   ...oooo..oOo.",
"oOOOoO+OoXoOoO++oXooo+o.o++oo++OOOOOOO+OOoOO.XX..XO#OoXOO+oXOOOO",
"@#o+@@++@+o@++#@@+@@@#@@+@+@@@++o+++@+O@++++@+@@o++++#@+@#++@@@@",
"ooooo+.o@@o+oO@@+++oo+o+++o@+.+@++o+@@+@@+++@+@o.oo.+#@o+@+++++o",
"oo+O+@#++++..O+o@+.oooo.ooX..o@+o+@@+@@++@Oo.o+@+.oX@@+O@@++@+oo",
"oo+X..OoX@o.oOo@+o.o+o+oo+oooo+@+@@@++oo+@oo+@@@o.ooO@+@@+O@+ooo",
"oo+..o.o.o..oO+@ooo+o++o+oo++X@@@+.o+@@+@o++@++@o+..+@+++++@+oo+",
"++o..o+o.oo.oO+++o+++++++oooooOo+oo++@@++o++++@+o+. ##+o++O@++++",
"ooo.o+@@++@..O+@++o+oo++++++++@@@.@@@#@+O+++@@+@+o  @#o++.o@++O+",
"o++Oo++. ..  O#@@+++o++o+oo+o+++..+@++o...+o. .... .+@++o..o@+++",
"oo....  .o. o+@+o.oooo.o@++o++o+oo+o...... ..o+....o+++o+o.Xo.oo",
"+Xooo.. ...o++o. .OOOXo++o+++oO++oo..oXo..X.....XX.O@o.oOX.+..OO",
"O@+++++++@@+@++@+O++O@+++++O+@+++@++@++++++++@++O+@++@o+++@++++@",
"+@@@@oo@@+++@@@@@+.X@@@@+@++@@@o@+++@+o++o++o@@+o+@+o@+@@+o@+@.O",
"@++@+++++++OOo@++o X@++@@@@@o@+++@@@o.++o@o+o@@X++oo+oo+@@+++o.O",
"+++@+@+oO+OO++O++. X+o++@+@+o.o++oX@+.++@++oo+#++@@+++o++++.o. X",
"@@++@+o+@++++++@+  X@@+o+@Ooooo+.oo@o.+@@o+o+@#++++++@++o++o.. X",
"+@@+++o+o++++o+++..O+@@+@@XOo.++oo@+oo+@oo++@@+oooo++++OooooO..O",
"+@++++oo++O@ooO+o..O+@+@@+o@o+++@@++o.O#+++++++++oo.o+++oo.oo..O",
"@@+@oO+@+o+oo++@...O@@+@oo+@o++@++o@o.+@++@+++++++o+oo++oo.+o..O",
"+@+..... ....++o..oO@@+...  ..ooo+o..oO+oo++@@++++@@o.o.o.oo..oO",
"@o.............  o.O@o..oo......o...ooO+oo+oo...oooo.++o+.+o o.O",
"++ooOoOOOooXOooXOOO+@Ooo++++oOoooo+++oO++OOo.XXOOoXXXXOOOOOOOOO+",
"#@@@@@o+O@#@o+++++@@#@@##o@@#@@@o@@@@@o+@@@@@@@@+O.+#+o+#@@+++@@",
"++o@+++oO#@oo@o@#@@+@oo++..o+@@++@@+o+@+@++@+#+o.o@@@@@@@+++@@@+",
"+.o++@+.+#@.o++@@oo++..+ooo@@oO+o+++@@++o@+@@@..oO++@+@@@++@@oo+",
"++o++@o.++@+@+@Oo+oo++oo.+++oo+oo.++@++++++@@+...+@@@+o+@@@+o+oo",
"@o.+@@ooO##O++#+..Xo@o .ooo+@@@@@+oooO@+o+++o...o+++@+XO@O++..Xo",
"..o+@++.O@@o##@+Xo++...o+@@@@+++@+++oo@++o.oo++ooO@@@+o@@+@+oo++",
"+++@@@+.O@@o++o+oO+o+@o@@@@@++oo+++o++oooo+++@+.oO+@++o@@o++oO++",
"oo.+@o..o@@ooo+@o.+oo@++++oo..oo.....oOo..oo.+O.oo++o++@++@@o.+o",
"..o++.oO+#+.o.  .............o...oo..oX...   O+ooo#@..oo.... ...",
".  .....O. ..    ....  . ...+O.....         ..  oO@..O....oo....",
"OoX.OooO++++oO++O+OOOO+++@++++O++OO+OOo+oooXooX+++oXOOXXoooOO++O",
"+@@@@@@@@+@@#++#@@@@+@@@@++@+@+@@@+o++@o+@@@+@+++@++@#++#+++X@#@",
"+@@@@@o@+o++#oo@@@@@+@@@@++@.o@@@@@.o+@@++@@+++o++@@@o++@oo.X@@@",
"o@@@+++o+o@@+.O+o+@@o@@@@+oX.Ooo@@o.o++@@+@+++o++.o+oo@+@o.OO@@@",
".oOoo@+o+++@..O+@@O..oooOO+oo+O+@+ .o@@@+++o++o..ooo+@@@@+.oO@+.",
".+o.o@@@@O+  oO@@@+..o..o+++.o+++.o.O++++oooooooo++++++@@@ .X#+.",
"o+ooo.o@+@  O+o@@@++oooo@+.  O@..oo.O+@o.o+oo+++o+++@+@#+ .Oo@@+",
"++.o+.X o. +++O+@+O.++oo+  .+o..oo.oo+@++++o++o+@+@@@@+@. o.o+o.",
"...o++@+. o@+@O@@o..X... .o++.....o.o@@@@o..+@+o+++..o@#@.@OO+o.",
".o..o+@+@@+o+oo#+++..Oo+O+++.@@.o+.o+@oo. .o... ....X.o.X..OO@+.",
"OOXXOo......oo++OOO.OOXo.oo.o...ooo+OXO..OO+OoOo+o.oo+X  ..+OOo.",
"++O@+#@@@++@@++++++@@+@+@++@+++++O+++++++oooo+++OO++Oo+++O+++++@",
"+O@#@@+@@@@@@+@+@@@o@@++@@@@@#@@@o+@#+@+++++@+@@o+@@++@@@@@@@@@+",
"oO@+@+o+@@@+o+@++@#+++.+@@@.@#@@+@+O@@+o++@@+o@+X@@@@+@@@+@++@++",
".O+O#@+@@@#++@@oo++@.o.+@++o@#@++oo@.o.o++@+@++oX#++@+++++@+o++X",
".O@+++++o++..++o++++o..+@@@+@@@++oo+.o+@oo+++@@ X+OO++@@@+@+o+XX",
".O#@@+++++ooo++oOooooOo+++@++.+oooO#@o+@..+.O@o X@@@++@++o++Oo..",
".O@@o++++oooOo+++oo....+++++.ooo.++o++@@++@+@+..X@#+@+++++oooo@.",
".X+oo++++o..o+@#+.  . o+@@@@+++oo++oo++++++o+..oO#@+@@+++o++.+@.",
" O@+@+oooX.........oo.oO@@@@++@oo@+o@@+oooo.oo++O#@@@ooooo+.+#. ",
".O++o   ..  .  .. ....o+@++o++..... . . .   ... +++o....o...+o. ",
"O+OXXXOOooOOOO+OOOOOOO+@+oOoOOOOOoXOOOoOoXXXXOXo+O+OOOoooooOOOOO"
};
