/* XPM */
static char *out[] = {
/* columns rows colors chars-per-pixel */
"64 64 8 1 ",
"  c #1B2418",
". c #222222",
"X c #424628",
"o c #73733B",
"O c #BFBF3F",
"+ c #8F8F57",
"@ c #A2A255",
"# c #E6D55A",
/* pixels */
"###OoX @###O+X O###@oX.@##O@oo O###@oX O###@oX +++oXXX.@###@+o O",
"###@oX @###OoX O###@oX.@##O@oo O###@oX @@@+oXX @@@@oXX.@###@+o O",
"###@oX O###OoX O###@oX.@##O@oX O###@oX oooXX   @##@+oX.@##O@+o O",
"###@oX O###OoX O###@oX.@##O@oX O###@oX XXXXXX  @##@@oX.@###@+o O",
"@@@@oXXO###OoX O###@oX.@##O@oX O###@oX +@@+oXXX@###@oX.@###@+o +",
"XXX  . O###OoX O###@oX.@###@oXXO###@oX @OO@oXXXO###@+X.@###@+o X",
"@@@oXXXO###OoX O###@oX.@###@oXXO###@oX @##O+XXXO###@+X.@###@+o @",
"OO@+o XO###OoX O###@oX.@###@oXXO###@o XO##O@oXX####@oX O###@@o @",
"##O@o XO###OoX O###@oX O###@oXXO###@o XO###@o X####@oX O###@+o O",
"###@o XO###@oX O###@o  O###@ooXO###@o XO###@o XO###@oX O###@+o O",
"###@o X####@oX O###@o  O###@oXXO###@o XO###@o X####@oX O##O@+X O",
"###@o X####@oX O###@oX O###@oX O###@o XO###@o X####@oX O##O@oX O",
"###@o o####@oX O##O@oX O###@+XXO###@o XO###@o X####@oXX###O@oX O",
"###@o o####@oX @##@+XX.XXoXXX  O###@o XO###@o X####@oXX###O@oXXO",
"##O@o o###O@oX +++oXX .Xo+oX . O###@o XO##O@o X####@oXX###O@oX O",
"##O@o o####@oX ++oXXX  @OO@oXXXO###@o XO##O@o X####@o X###O@+X O",
"##O@o o####@oX XXXX .. @##O+X XOO##@o XO##O@o X####@o X###O@+X O",
"##O@o o###O@oX @@@+XX.XO###@X XOO##@o XO##O+o X####@o o###O@+X O",
"##O@o.@###O@oX @@@@oX XO###@X XOO##@o XO##O+o o####@o o###O@+X O",
"##O+o.+###O@oX @O@@oX.XO##OoX XOO##@o XO##O+o o####@o o###O@oX O",
"##O+o.o###O+oX @OO@oX.X###OoX XO###@o XO##O+o o####@o o###O@oX O",
"##Ooo.+###O+oXXOO@@oX.o###@oX XO###@oXXO##O+o o####@o o###O@oX O",
"##Ooo.+###O@oXXOOO@oo.o###@oX XO###@o XO##O+o o####@o o###O@oX O",
"##Ooo.@###O+oXXOO#@@o.o###@oX XO###@oX O##O+o o####+X o###O@oX O",
"##Ooo.@###O+o XOO#O@o o###@oX XO###@oX O##Ooo o####+o o###@@oX O",
"##Ooo.@###O+o X###O@o o###@oX XO###@oX O##Ooo o####+o o###@@oX O",
"##O+o.@###OoX o##OO@o o###@+o XO###@oX O##Ooo o###O+X o###O@+X O",
"##OoX.@###OoX o###O@o o###@+o XO###@oX O##Ooo o###O+X o###O@+X O",
"##Ooo.@###OoX o###O@o o###@+o XO###@oX O##Ooo o###O+X o####@+X O",
"##Ooo.+###@oX o###O@X XO##O+o X#@@@oXX O##OoX o###O+o o####@+X O",
"##Ooo.+###@oX.o###O@X XO##O+o X+++oXX  @##O+X o###O+o o####@oX O",
"##Ooo.o###@oX.o###O@X XO##O@o X+oo+oXX @##O+X o###O+o o@@@@@+X O",
"##Ooo.oO##@oX.o####@X XO##O@oXX++ooX   @##OoX o####@o X++++oX .O",
"###@o.oO##@oX.o####@X XO##O@oXX@@@@oXX @##OoX o####@oX XoooXX .O",
"###@o.oO##@oX.o####@X XO##O@oXXO##@+oX O##O+X o####@oX XXXXXX .O",
"###@oX @##O@o XO###@oX.@###@oX @###+oX O###@oXXO###@oX +++oXX .@",
"###@oX.@###@oX.@###@oX.@###@+X @###@oXX####@oX @###O+o.+@@@ooX.@",
"###@oX @###@oX @###@oX.@###@+o @###@oXX####@oX @###O+o.+@@@+oX.@",
"###@oX @###@oX @###@oX.@###@+o @###@oXX####@oX @###O+o.+#O@@oX.@",
"###@oX.@###@oX.@###@oX.@###@@o @###@oXX####@oX @###O+o o##O@+X.@",
"###@oX.@###@oX.@###@oX.@###O@o @###@oXXO###@oX @###O+o.o###@+o.@",
"###OoX.@###@oX.@###@oX.@###O@o @###@oXXO###@oX @###O+o o###@+o.@",
"###OoX.@###@oX.@O##@oX.@###O@o @###@oXX####@oX @###@+o o###@oo.@",
"###OoX.@###@oX.@###OoX.@###O@o.@###@oXXO###@oX @###@+o o###@+o.@",
"###OoX.o+++oXX.@###OoX.@###O@o.@###@oXXO###@oX @###@+o o###@+o @",
"O##OoX XXoXXX .@###OoX.@###O@o.@###@oXXO###@oX @###@+o o###@+o.@",
"###OoX.ooXXX  .@###OoX.o###O@o @###@XX O###@oX @###@+o.o###@+o @",
"###OoX.+@++XXX.@###OoX.o###O@o +###@XX O###@oX @###@+o.o###@+o @",
"###OoX.@@@@+XX.@###OoX.@###O@o o###@XXXO###@oX @###@+o.o###@+o.@",
"###OoX.@OO@@oX.@###OoX.o###O@o o###@XXXO###@oX @###@+o.o###@+o.@",
"###O+X.@#OO@oX.@###OoX.o###O@o o###@XXXO###@oX @###@+o.+###@+o.@",
"###OoX.@##O@oX.@###OoX.@###O@o o###@XXXO###@oX @###@+o.+###@+o @",
"O##OoX.@##O@oX.@###OoX.@##OO@o o###@XX O###@oX @###@+o.+###@+o @",
"###OoX.@##O@oX.@###OoX.@##OO@o o###@oX O###@oX @###@+o.+###@+o @",
"###OoX.@##O@oX.@###OoX.@###O@o o###@XX O###@oX @###@+o.@###@+o @",
"###OoX.@###@oX.@###OoX.@###O@o o###@XX O###@oX @###@+o.@###@+o @",
"###OoX.@O##@oX.@###OoX.@###O@o @###@XX O###@oX @###@+o.@###@+o @",
"###OoX.@O##@oX.@###OoX.@##O@@o @###@oX O###@oX @###@+o.o###@+o @",
"###OoX.@O##@oX.@###OoX.@##O@oo @###@oX O###@oX @###@+o.o##O@+o @",
"##O@oX.@###@oX.@###OoX.@##O@oo @###@oX @###@oX @###@+X.o##O@+o O",
"###@oX @###@oX.O###OoX.@##O@oo @###@oX @###@oX @##@@oX.+###@+o @",
"###@oX.@###O+X.O###@oX.@##O@oo @###@oX O###@oX +@@@+oX.+###@oo @",
"###@oX.@###OoX O###@oX.@##O@oo @###@oX O###@oX XoXoXX .@###@oo @",
"###@oX @###OoX O###@oX.@##O@ooXO###@oX @###@oX oXXXXXX.@###@oo O"
};
