/* XPM */
static char *c9dffaec8f624760a52a525761ce8a52LxcQJRrmW5FRyuCR[] = {
/* columns rows colors chars-per-pixel */
"64 64 8 1 ",
"  c black",
". c #1C2319",
"X c #424426",
"o c #73733B",
"O c #BFBF3F",
"+ c #8F8F57",
"@ c #A2A255",
"# c #E6D55A",
/* pixels */
"##@XX##Oo.O##+ @##@Xo##@X.O#@+.@#O@XXOO@o.@##o o#O+XX@+XX @#O@X@",
"##@XX###o.O##o @##@Xo##@XXO#O+.@#O@XX#O@o.@##+ XoXX.XO@+X @#O@X+",
"##@XX###o.O##o @##@Xo##@XXO#O+.@#O@Xo#O@o.@##+ XooX.X##@o @#O@Xo",
"oXX.X##Oo.O##o @##@Xo##@XXO#Oo.@#O@Xo#O@o.@##o oO@o.X##@o.@#O@XX",
"@@o.o##Oo.O##o @##@Xo##@XXO#Oo.@#O@Xo#O@o.@##o o#Oo.X##@o.@#O@Xo",
"#O@.o##Oo.O##o @##@Xo##@XX##O+.@#O@Xo##Oo.@##o o##+.X##@o.O#O@Xo",
"##@.o##Oo.O#Oo @##@Xo##@.X##Oo.@#O@Xo##Oo.@##o o##@.X##@o.O#O@.+",
"##@.o##Oo.O#@o @##@Xo##@.X##Oo.@#O@Xo##Oo.O##o +##@.o##@o.O#O@X@",
"##@.o##OX.##@o.+@@+Xo##@.X##Oo.@#O@Xo#OOo.O##o @##@.o##@X.O#O@X@",
"##@.@##@o.@@oX.XooX o##@.X##Oo.@#O@Xo#OOo.O##o o#O@.o##@X.O#O@X@",
"##@.@##@o.ooXX.@##o.o##@.X##Oo.@OO@Xo#OOo.O##o o##+.o##@XX##O@.@",
"##+.@##@X.++o. @##o.o##@.X##Oo.@#O@Xo#O@o.O##o o#O+.o##@XX##O@.@",
"##+.@##@X.@#+X.@##o.o##@.X##Oo.@#O@Xo#OOo.O##o o##o.o##@XX##O@.@",
"##o.@##@XXOO+X.O#Oo.o##@.X##Oo.@#O@Xo#OOo.O##o o##o.o##@XX##O@.@",
"##o.@##@XXOO@X.##Oo.o##@.X##Oo.@#O@Xo#O@o.@##o o##o o##@XX##@+.@",
"#Oo.@##@XXO#@oX##@o.o##@.X##Oo.@#O@Xo#O@o.@##o o##o.o##@.X##@+.@",
"#Oo.@##@XX##@oX##@o.o##@.X##Oo.O#O@XoOO@o.O##o o#Oo o##@.X##@+.@",
"#Oo.@##@.X##Oo.##@o.o##@.X##Oo.O#O@XoOO@o.O##o o#Oo.o##@.X##@@.@",
"#Oo.@##@.o##Oo.O#Oo.o##@.X##Oo.O#O@ooOO@oXO##o o#Oo o##@.X##O@.@",
"#Oo.@##+.o##Oo.O#Oo.o##@.X##Oo.O##@Xo#O@oX@@@X o#Oo o##@.X##O@.@",
"#Oo.@##+.o##Oo.O#Oo.o##@.X##Oo.O##@Xo#O@o.oooX o##o o##@XX##O@.@",
"#Oo.@##o.o##Oo.O##+.o##+.X##Oo.++oXXX#O@o.ooXX.o#Oo o##@XX+++o.o",
"#Oo.@##+.o##Oo.O##+.o##+.X##Oo.+@oX.X#O@oX@@+o.o#Oo o##@X.XXXX o",
"##+.@##@.o##O+.O##+.o##+.X##Oo.O#O@XX#O@oX@O@o o##o o##@X.+@+X +",
"##+.@##@.o##O+.O##@.o##+.X##@o.O##@XX#O@oXO#@o.o##o o##@X.@O@o +",
"##+.@##@.o##O+.O##@.o##+.X##@o.O##@XX#O@oXO#O@.o##o o##@X.O#@o +",
"##@Xo##@.X##O+.O##@.o##@XX##@o.@##@XX#O@oXO#O@.o##o o##@X.O#Oo @",
"##@Xo##@.X##O+.O##@.X##+XX##O+.@##@XX#O@oXO#O@.o##o o##@X.O#Oo @",
"##@Xo##@XX##O+.O##@.X@@+XX##O+.@##@XX#O@oXO#O@.o##o o##@X.O#Oo +",
"##@XX##@XX##O+.@##@X.ooX.X##O+.@##@XX##@oXO#O@.o##o o##@X.O#Oo +",
"##@XX##@XX###@.@##@X.+oX..O#O+.+##@XX##@oXO#O@.o##o o##@X.O#Oo +",
"##@o.ooX.X###@.@##@XX@@X.XO#O@.o##@XX#O@oXO#O@.o##o o##@X.O##+ +",
"##@o.@+XXX###@X@##@XXO@o.XO#O@Xo##@XX##@oXO#O+.o##+ o##@X.###+ +",
"##OoXO#+XX##O@X@##@XXO#+.XO#O@Xo#O@XX##@o.O##+ @##@ o##@X.###+ +",
"##OX.O#@X.O#@o.@##@oX##@XX##O@Xo#O@XX##@o.O##o +##@ X##@X.O##+ +",
"##@XX##@XX##@o.@##@XX##@XX###@X@##@XXO#Oo.@##o +##@.X##@X.O##+ +",
"##@.X##@XXO#@X @##@Xo##@XX###@X@##@o.O#Oo.@##o +##@X.O#OX.@##+ o",
"##@.X##@XXO#@X @##@Xo##@XX###@X@##@o.O#Oo.@##o o##@X.##OX.@##+ o",
"##@.X##@XXO#@o @##@Xo##@XX###@Xo##@o.O#Oo @#Oo.o##@X.##Oo.@##+ o",
"##@.X##@XXO#@o @##@Xo##@XX###@Xo##@o.O#Oo @##+.o##@X.###o.@##+.o",
"##OXX##@X.O#@o @##@Xo##@X.###@Xo##@o.O#Oo @#@o.o##@X.###o.@##@.o",
"##OXX##@X.O#Oo @##@Xo##@X.###@Xo##+X.O#Oo.o+oX.o##@X.###o @##+.o",
"##@XXO#@X.O#Oo @##@XX##@X.###@XXooXX.O#Oo.o+oX o##@X.###o @#@+.o",
"##@XXO#@X.O#Oo o##@Xo##@X.###@XXooXX.O#Oo +#@o.o##@X.O##o.X+oX o",
"##@XXO#@X.O##o o##@Xo##@X.O##@Xo@@oX.O#Oo +#@o o##@X.O##o.XXXX o",
"##@XX##@X.O##o o##@Xo##@X.O##@Xo#@@oXO#Oo +#Oo +##@XX##Oo.o+oX.o",
"##@XX##@X.O##o o##@Xo##@X.O##@Xo##@oXO#Oo +#Oo +##@XX##Oo +#@+.o",
"##@XX##@X.O##o o##@Xo##@X.O##@Xo##@oXO#Oo +#Oo @##@X.##Oo +#@+.o",
"##@XX##@o.O##+.o##@Xo##@X.O##@.o##@oXO#Oo +#Oo o##@XX##O+ +#O+.o",
"##@XX##@o.O##+ o##@Xo##@X.@##@.o#O@oXO#@o @#Oo o##@.X##O+.o#O+Xo",
"##@XX@@@o.O##@.o##@oX@@oX.@##@.+#O@oXO#@o @#Oo o##@.X##O+.o#O@.o",
"##@X.oooX.O##@.o##@o.XX...@#O+.@##@oX@#@o @##o o##@.X##@+.o#O@.o",
"##@X.ooX..O##@.o##@oX++oX.@#O+.@##@oX@#@o @##o o##@.X##@+.o#O@Xo",
"##@XX@@+X.@##@.o##@oXO#+X.@#O+.@##@oX@#@o @##o o##@.X##@+.+##@.o",
"##@XXOO@X.O##@.o##@oX##@X.@#O+.@##@oXO#@o @##o o##@.X##@o.+##@Xo",
"##@XX##@o.O##@.o##@oX##@X.@#O+.@##@oXO#@o @##o o##@.X##@o.@##@Xo",
"##@XX##@o.O##@.o##@oX##@X.@#O+.@##@oXO#@o @##o o##@.X##@o.@##@Xo",
"##@XX##Oo.O##@.o##@oX##@X.O##@X+##@oXO##+.@##o o##@.X##@o.@#O@Xo",
"##@XX##Oo.O##@.o##@oX##@X.@#@o.@##@oXO#@X.@##o o##@.X##@o.@#O@Xo",
"##@XXO#Oo.O##@.o##@oX##@X.oooX.@##@oX@+oX.@##o o##@.X##@o.@#O@Xo",
"##@XX##Oo.O##@.o##@oo##@X.o+oX @##@oX+oXX @##o o##@.X##@o.@#O@Xo",
"##@XX##Oo.O##@.o##@Xo##@X.@#@o.@##@XX@@+X @##o o##@.X##@o.@#O@Xo",
"##@XX##Oo.O##@.+##@Xo##@X.@#@o.@#O@XXO@@o @##o o##@X.+++o @#O@Xo",
"##@XX##Oo.O##@.+##@Xo##@X.@#@+.@#O@XXO@@o.@##o o##@X.XXXX @#O@Xo"
};
