/* XPM */
static char *_a42f8839da24987d8cefb7a3c82306cnnSKws8ez3qPZE4X[] = {
/* columns rows colors chars-per-pixel */
"64 64 215 2 ",
"   c #3327A2",
".  c #3329A6",
"X  c #332DAB",
"o  c #3430AE",
"O  c #362FB1",
"+  c #3634B3",
"@  c #3836B5",
"#  c #3639B7",
"$  c #3A3AB6",
"%  c #3735B8",
"&  c #3936B9",
"*  c #373BBB",
"=  c #393BBC",
"-  c #413FB9",
";  c #3542BE",
":  c #3A41BD",
">  c #4545BC",
",  c #4952BF",
"<  c #3F36C6",
"1  c #3B3EC1",
"2  c #3F3EC8",
"3  c #3644C3",
"4  c #3C42C4",
"5  c #334BC5",
"6  c #3C4AC6",
"7  c #3E46CA",
"8  c #344EC9",
"9  c #3F48CC",
"0  c #3F51C5",
"q  c #3353CC",
"w  c #3C52CE",
"e  c #3C59CF",
"r  c #2F5DD1",
"t  c #3656D1",
"y  c #3E54D1",
"u  c #325BD3",
"i  c #3F5BD4",
"p  c #3161D7",
"a  c #3C64D5",
"s  c #3C69D6",
"d  c #3E66D9",
"f  c #3E6BDB",
"g  c #2C74DE",
"h  c #3E72DE",
"j  c #3C7FDE",
"k  c #2A7CE1",
"l  c #3F75E1",
"z  c #3F7CE4",
"x  c #4246C4",
"c  c #444AC4",
"v  c #4345CA",
"b  c #434CCC",
"n  c #4A4FC9",
"m  c #4455C6",
"M  c #4452CE",
"N  c #4A54CD",
"B  c #4C5BCE",
"V  c #5253C3",
"C  c #525CCE",
"Z  c #4254D0",
"A  c #4A56D0",
"S  c #445BD3",
"D  c #4A5CD2",
"F  c #525CD2",
"G  c #4265CF",
"H  c #5662CF",
"J  c #5864CB",
"K  c #5B78CF",
"L  c #4667D7",
"P  c #4C63D5",
"I  c #4E6BD4",
"U  c #4266D9",
"Y  c #4D6AD8",
"T  c #5363D4",
"R  c #5963D2",
"E  c #5369D7",
"W  c #5B6AD7",
"Q  c #556CD8",
"!  c #5B6FD9",
"~  c #4472DC",
"^  c #4C76D9",
"/  c #5371D6",
"(  c #5679D7",
")  c #5372DB",
"_  c #5B73DA",
"`  c #5B7BDD",
"'  c #6163CC",
"]  c #646DD6",
"[  c #6271D1",
"{  c #6977D7",
"}  c #6276DB",
"|  c #637BDC",
" . c #707ADA",
".. c #4376E0",
"X. c #437CE2",
"o. c #4C7CE2",
"O. c #517CE0",
"+. c #3F81E6",
"@. c #3F88EA",
"#. c #3490E7",
"$. c #4D80DC",
"%. c #5283DF",
"&. c #5C80DE",
"*. c #6482DE",
"=. c #6C85DD",
"-. c #6989DA",
";. c #6591DF",
":. c #7990DF",
">. c #4785E6",
",. c #4C8DEA",
"<. c #5384E2",
"1. c #5987E2",
"2. c #538BE6",
"3. c #5A8BE3",
"4. c #538DE8",
"5. c #4793E5",
"6. c #4795EB",
"7. c #4C98EC",
"8. c #5693E5",
"9. c #5B91E4",
"0. c #5E99E5",
"q. c #5494EA",
"w. c #5B96EB",
"e. c #549CEE",
"r. c #489BF1",
"t. c #628AE3",
"y. c #698CE3",
"u. c #7889E0",
"i. c #6394E6",
"p. c #6B94E5",
"a. c #6C9CE6",
"s. c #6195E9",
"d. c #649CEC",
"f. c #6D9BE9",
"g. c #7195E6",
"h. c #7B93E1",
"j. c #799CE5",
"k. c #759DE9",
"l. c #4BA8EE",
"z. c #59A5ED",
"x. c #48A0F0",
"c. c #58A7F2",
"v. c #5DA5F2",
"b. c #53B2F5",
"n. c #63A2EE",
"m. c #6CA5EB",
"M. c #6CA9EF",
"N. c #74A4EB",
"B. c #7AA3EA",
"V. c #74AAEE",
"C. c #7CAEEE",
"Z. c #65ABF2",
"A. c #6BABF1",
"S. c #74AFF1",
"D. c #61B0F6",
"F. c #6BB4F5",
"G. c #6DBBF5",
"H. c #77B3F2",
"J. c #7CB4F2",
"K. c #73B9F6",
"L. c #7BBBF5",
"P. c #6EC2F3",
"I. c #74C1F3",
"U. c #7FC4F3",
"Y. c #7CC2F9",
"T. c #8A90DD",
"R. c #8795E1",
"E. c #8CACE6",
"W. c #83ABED",
"Q. c #8BADEB",
"!. c #99A7E6",
"~. c #88B5ED",
"^. c #93B5EE",
"/. c #9BB3EC",
"(. c #93BBEE",
"). c #99B8EE",
"_. c #85B4F1",
"`. c #8FB6F0",
"'. c #83BAF3",
"]. c #8CBBF2",
"[. c #94BCF2",
"{. c #A5ABE7",
"}. c #A4B9EC",
"|. c #8CC2F3",
" X c #89C8F7",
".X c #82C2F8",
"XX c #87C9FA",
"oX c #93C3F5",
"OX c #9AC3F2",
"+X c #94CBF3",
"@X c #9BCAF4",
"#X c #92CCF9",
"$X c #9CCEF8",
"%X c #96D1F7",
"&X c #9BD1FA",
"*X c #A6C6F2",
"=X c #A6CDF6",
"-X c #A9CDF4",
";X c #B3CAF2",
":X c #A3D0F7",
">X c #ADD3F7",
",X c #A6D5F9",
"<X c #ABD6F9",
"1X c #AAD9FA",
"2X c #B1D3F7",
"3X c #BCD6F5",
"4X c #B2D5F8",
"5X c #B4DCFA",
"6X c #BDE1F9",
"7X c #C6D7F6",
"8X c #C4E2F9",
"9X c #CCE7F9",
"0X c #D9E3F7",
"qX c #E4F2FD",
"wX c #FEFEFE",
/* pixels */
"9 9 9 9 9 9 9 9 9 9 9 9 9 9 9 9 9 9 9 9 9 9 9 9 9 9 9 9 9 9 9 9 7 9 9 9 9 9 9 9 9 9 9 9 9 9 9 9 9 9 9 9 9 9 9 9 9 9 9 9 9 9 9 9 ",
"9 9 9 9 9 9 9 9 9 9 9 9 9 9 9 9 9 9 9 9 9 9 9 9 9 9 9 9 9 9 9 9 7 7 9 9 9 9 9 9 9 9 9 9 9 9 9 9 9 9 9 9 9 9 9 9 9 9 9 9 9 9 9 9 ",
"9 9 9 9 9 9 9 9 9 9 9 9 9 9 9 9 9 9 9 9 9 9 9 9 9 9 9 9 9 9 9 9 P _ 8.-.D 9 9 9 9 9 9 9 9 9 9 9 w 9 9 9 9 9 9 9 9 9 9 9 9 9 9 9 ",
"9 9 9 9 9 9 9 9 9 9 9 9 9 9 9 9 t w w t 9 9 9 9 9 9 9 9 9 t i 1.E.@X5X8X(.t.P M 9 9 7 6 q t u t u t 9 9 9 9 9 9 9 9 9 9 9 9 9 9 ",
"9 9 9 9 9 9 9 9 9 t t u t u u u u p u u t 9 9 9 9 9 9 w u ^ <.N.~.-X9X9X6X|.C.p.) 9 4 3 5 5 5 q q w 9 7 7 7 9 9 9 9 9 9 9 9 9 9 ",
"9 9 9 9 9 9 9 7 q t r q q q q 8 q t u u t 9 9 9 9 t u u ^ ` &.8.z.6.z.@XI.U.+X@X(.9.[ 4 : * * * ; 4 4 4 4 7 9 9 9 9 9 9 9 9 9 9 ",
"9 9 9 9 9 7 7 4 4 3 3 ; = = = : 4 9 9 w 9 9 9 t t u u t e T P a g #.5.l.b.P.%X5X%X+X(.j.P m = * = 1 4 4 4 4 9 9 9 9 9 9 9 9 9 9 ",
"9 9 9 9 9 7 4 4 4 4 1 1 = 1 1 1 7 9 9 9 9 7 t q q 8 5 : 4 x 7 9 t r ^ a.S.'.+X XG.U.|.].m.%.;.q 6 4 4 7 4 7 9 9 9 9 9 9 9 9 9 9 ",
"9 9 9 9 9 7 4 4 4 7 7 7 7 7 7 7 7 9 9 9 9 7 4 3 = # + o + * * 1 4 3 0 H | *.3.5.k k 8.m.n.OXm.a.u w 9 9 9 9 9 9 9 9 9 9 9 9 9 9 ",
"9 9 9 9 9 9 7 7 7 9 9 9 9 9 9 9 9 9 9 9 9 7 7 4 * # X X X X X + + + + $ : : * ; 5 5 t r %.^ i.h u 9 9 9 9 t w w t w 9 9 9 9 9 9 ",
"9 9 9 9 9 9 9 9 9 9 9 9 9 9 9 9 9 9 9 9 9 9 9 7 4 1 = # o X . X . X X X X X o + + = 4 6 4 8 6 w 9 9 9 9 t u t u u p u t 9 9 9 9 ",
"9 9 9 9 9 9 9 9 9 9 9 9 9 9 9 9 9 9 9 9 7 7 7 7 7 7 7 4 * + X X X X o + o # # * = 1 4 7 7 4 7 4 7 4 4 1 4 5 5 5 8 8 t 9 9 9 9 9 ",
"9 9 9 9 9 9 9 y 9 y 9 9 9 9 9 9 9 9 9 9 7 4 4 4 4 4 4 7 7 4 * # # = = = 1 4 4 7 7 7 7 7 7 7 4 4 1 4 = = = * = = = 4 4 9 9 9 9 9 ",
"9 9 9 y i i i i i i i y 9 9 9 9 9 9 9 9 4 4 = 1 1 = 1 4 9 7 7 4 4 7 7 9 7 7 7 9 9 9 7 4 4 4 1 4 4 4 4 4 4 4 4 4 4 4 7 9 9 9 9 9 ",
"9 y i i i i y y w w w y 9 9 9 9 9 9 9 9 7 4 7 4 4 4 4 7 9 9 9 9 9 b b b M b M 9 9 9 4 4 1 4 4 4 4 7 9 9 9 9 9 9 9 9 9 9 9 9 9 9 ",
"9 9 9 y w 9 7 4 4 4 4 7 9 9 9 9 9 9 9 9 9 9 9 9 9 9 9 9 y 9 9 D F W E E ! E Q S 9 9 7 4 4 4 4 4 4 4 7 9 9 9 9 9 9 9 9 9 9 9 9 9 ",
"9 9 9 9 9 4 4 = 1 1 4 7 9 9 9 9 9 9 U 2.*.b 9 9 9 9 9 i i i Y _ | | | | } | _ ! i y 7 4 1 4 4 4 4 4 7 9 9 9 9 9 9 9 9 9 9 9 9 9 ",
"9 9 9 9 9 7 4 4 4 4 7 7 9 9 9 9 y ..H.oX.XW.~ 9 F F 7 9 y y Z P B C N m N c A S y y 9 4 4 4 4 7 7 7 9 9 D Z A Z M 9 9 9 9 9 9 9 ",
"9 9 9 9 9 7 7 7 9 9 9 9 9 9 9 S >.B.`.<X1X%XJ.d.E.T.4 1 4 4 4 4 * = = = @ = = 9 9 9 9 7 7 7 9 9 y y y Y _ ` _ _ ! E Z 9 9 9 9 9 ",
"9 9 9 9 9 9 9 9 9 9 9 9 9 b E w.n.H.*X$X1X1X1X$Xm.}.!.1 = 1 1 = = @ @ = = = 7 9 9 9 9 9 9 9 9 y i i i P ! _ _ } | | _ i y 9 9 9 ",
"9 9 9 9 9 9 9 9 9 9 9 9 M ) d.A.'.[.`.].L.#X5X5X:XV.h.H N C 4 4 4 4 4 4 4 7 7 9 9 9 9 9 9 9 9 y y y 7 4 x x b N B F S i y 9 9 9 ",
"9 9 9 9 9 9 9 9 9 9 w y ~ M.v.n.e.m.C.f.7.n.Y.#XXX>X-X}.h. .W 9 9 9 9 9 9 9 7 4 7 7 4 4 4 7 9 9 7 1 # + + = = 4 4 7 9 9 9 9 9 9 ",
"9 9 9 9 9 9 9 9 y S o...f.p.f.^ G 2.j.k.k.C.A.K.F.Y.1XOX7Xg.) f y y 9 9 9 9 4 1 1 = 1 = 4 4 9 9 1 = + + # = 1 1 = 4 7 9 9 9 9 9 ",
"9 9 9 9 y f f h h 4.<.$./ [ J > G S ( { R.:.h._ <.e.v.C.;X3.+.z z f y 9 9 9 4 4 4 4 4 4 4 7 9 9 7 4 = = 4 7 7 4 1 4 4 9 9 9 9 9 ",
"9 9 9 9 f l +.f s I I c * $ + $ + ; : > - V n c 4 6 e 4 B w i l h f y 9 9 9 7 7 7 7 7 9 9 9 9 9 9 9 7 7 7 9 7 7 4 4 7 7 9 9 9 9 ",
"9 9 9 9 7 i 6 ; * # + X X X o + + + + X o X @ @ # @ @ = 1 4 7 w y y 9 9 9 9 9 9 9 9 9 9 9 9 9 9 9 9 9 9 9 7 4 4 4 4 4 4 7 4 7 7 ",
"9 9 7 4 1 = = # + X . .   . X X X X . X . X # + # # = 1 4 7 7 9 9 9 9 9 9 9 9 9 9 9 9 9 9 y Y D 9 9 9 9 9 7 4 4 4 1 1 1 1 4 4 7 ",
"9 9 4 1 = = # + # + X . . . .       . . . X o # # = 4 7 9 9 y Z T D A M 9 9 9 9 9 9 9 9 i ,.M.p._ b 9 9 9 9 7 7 4 4 1 1 4 1 7 7 ",
"9 9 7 4 4 = = = = = o X X X .       . . X X + @ = 4 7 i i i i ` ` | _ _ P 9 9 9 9 9 9 b 2.L.$X>XW.| d 9 9 9 9 9 7 4 4 4 1 4 4 9 ",
"9 9 9 9 9 7 4 4 1 + o o + + X . . . o + + # = 1 7 7 i i i 6 w 9 B E } | _ S y 9 9 9 N p.].:X<XqX4X$Xf.0X] 9 9 9 7 7 7 4 7 4 7 9 ",
"9 9 9 9 9 9 7 7 = # + + * # + X X X + # = = 4 7 9 9 9 y 4 = = = 1 4 N N S i y 9 b D d.S.].|.,X,X6X8X,XQ.o.b 9 9 9 9 9 9 9 9 9 9 ",
"9 9 9 9 9 7 7 9 7 4 = 4 = = # + + # # = 1 1 4 9 9 9 9 7 1 = = 4 1 4 = 4 4 9 9 D ` '.].oXV.n.=X.X@X5X8X&X}.| T 9 9 9 9 9 9 9 9 9 ",
"9 9 9 9 9 9 9 9 9 9 9 9 7 7 1 = = = 4 7 4 4 7 9 9 9 9 7 7 4 4 7 4 4 4 4 7 9 ) t.W.^.2X;X(.V.oXn.n.4X5X5X,X@XN.*.E S b b 9 9 9 9 ",
"9 9 9 9 9 9 9 9 9 9 9 9 9 9 7 7 4 7 7 9 9 9 9 9 9 9 9 9 9 9 9 9 7 7 9 S D o.i.f.t.*.R.!./.h.t.@.>.wXZ.XX&X#XoX3X3Xf.y.Y b 9 9 9 ",
"9 9 9 9 9 v 9 9 9 M M A Z N 9 9 9 9 9 9 9 9 9 9 9 9 9 9 9 7 7 7 d d ..<.w.s.s.t.B 1 x J R R M i <.1.N.A.L.H.9.y.B.^.Q.j.` b 9 9 ",
"9 9 9 9 9 9 y y P Q _ _ _ ! D 9 9 9 9 9 9 9 9 9 9 9 7 7 7 7 4 a f +.X.<./ I E B = # + = = = 1 4 4 P P ` q.[.`.l <.=.h.=.H x 7 9 ",
"9 9 9 9 w y i i S T W W _ ! P y 9 9 9 9 9 9 9 9 9 7 4 4 7 4 = = e 6 i 6 $ = = 4 # + o X + + # = 1 4 7 b b <.O.+.l ~ n c = = 1 9 ",
"9 9 9 9 7 9 7 4 2 4 v v v M i i y 9 9 9 9 9 9 9 9 7 4 4 = = @ @ $ = = = # # = = = # + o o X + # # * = = = 4 6 6 e 4 1 = = = 4 9 ",
"9 9 9 9 7 4 2 2 < < 2 2 2 2 9 9 9 9 9 7 4 4 4 7 9 7 7 4 7 4 = = = = 4 = = = * = = = = o X X X + + + o X o # = + @ = 4 1 4 4 7 9 ",
"9 9 9 9 7 7 4 2 2 2 2 2 2 2 4 7 9 9 9 = 1 = 4 4 9 9 9 9 9 4 = = = = 4 4 = = = = @ = + X X X o + # @ # o + = = = = 4 4 7 7 9 9 9 ",
"9 9 9 9 9 9 7 7 4 4 4 4 4 7 7 7 9 9 9 7 4 4 4 7 9 9 9 9 9 4 1 = = = = = 1 = 4 4 4 = 1 = # # # * = 1 = = 1 7 4 4 4 7 7 9 9 9 9 9 ",
"9 9 9 9 9 9 9 9 9 9 9 9 9 7 7 7 9 9 9 9 9 9 9 N N 9 9 9 9 7 7 4 4 1 1 4 4 7 7 7 7 7 7 7 4 = $ + = = 1 4 7 9 7 7 7 9 9 9 9 9 9 9 ",
"9 9 9 9 9 9 9 9 9 9 9 7 4 4 4 4 9 9 9 9 9 9 R g.{ N 9 9 9 9 9 9 7 7 7 7 N M M N b b 9 9 4 = = = 1 4 4 7 9 9 9 9 9 9 9 9 9 9 9 9 ",
"9 9 9 9 9 9 9 9 9 9 9 4 1 = 1 4 9 9 9 9 9 N V.Q.B.R 9 9 9 9 9 9 9 y y E ! ! W _ W R T M 9 4 4 7 7 9 9 9 7 7 7 4 7 7 9 9 9 9 9 9 ",
"9 9 9 9 9 M M 9 9 9 9 7 4 4 7 7 9 9 9 9 A V.OX-X).u.N 9 9 9 9 9 i i i Q _ _ ` _ | | } _ S y y 9 9 9 9 9 7 4 1 1 4 4 7 9 9 9 9 9 ",
"9 9 y y D Q ! ! Z 9 9 9 9 9 9 9 9 9 9 i 9.@X>X4X-X^.{.9 9 9 9 9 9 w 9 7 N M M D S E Q P S i y 9 9 9 9 9 7 4 1 1 1 4 4 9 9 9 9 9 ",
"9 i i i P _ | _ W 9 9 9 9 9 9 9 9 9 d 6.Y.XX$X.XF.V.).E N 9 9 9 7 4 1 = = 4 4 4 7 7 4 6 7 7 9 9 9 9 9 9 7 7 7 4 4 7 7 9 9 9 9 9 ",
"9 9 y 9 y M A T b 9 9 9 9 9 9 9 9 i h ,.e.G.z.7.x.c.F.M.d.) 9 9 7 4 1 = = 1 4 4 4 = = @ = 4 7 9 9 9 9 9 9 9 9 9 9 9 9 9 9 9 9 9 ",
"9 9 9 9 9 9 9 9 9 9 9 9 9 9 9 9 f z z l V.N.j $.;._.|.#X'.A.X.i 9 7 7 4 4 7 7 7 7 7 = = 1 4 7 9 9 9 9 9 9 9 9 y y y y y 9 9 9 9 ",
"9 9 9 9 9 9 9 9 9 9 9 9 9 y y l z h d _ R.=.^ K -.E.oX.XY.D.r.w.o.S 9 9 9 9 9 9 9 9 7 7 7 7 7 9 9 9 9 9 9 y i i i i i i i 9 9 9 ",
"9 9 9 9 9 9 9 9 9 i y y f f z l h 6 = 1 & = c , J K 0.F.&Xb.#X$X_.d.N b 9 9 9 9 9 9 9 9 9 9 9 9 9 9 9 9 9 7 7 9 w 7 9 9 9 9 9 9 ",
"9 9 9 9 9 9 9 9 d l l z z z a e * + X O + % & - : m 0Xq.oXc..X=XoX_.p.T Q b 9 9 9 9 9 9 9 9 9 9 9 9 9 9 9 4 4 1 4 4 1 4 4 9 9 9 ",
"9 9 7 7 7 7 4 4 a s l d i 6 $ + + + O X O + + = = = ' 4 W 1.d.n._.'.Z.d.t._ b 9 9 9 9 9 9 9 9 9 9 9 9 9 9 4 4 1 4 4 1 4 4 9 9 9 ",
"9 7 4 4 1 = = = = 6 : 4 = & + O + % + X X X X o + + # & = N M U Y e.7.r.4.L 9 9 9 9 9 9 9 9 9 9 9 9 9 9 9 7 4 7 7 7 7 7 7 9 9 9 ",
"9 7 4 = = $ = = 4 = = = = & + X + + X X . . . X X X X o + = = 4 7 7 f s f 7 4 7 9 9 y i y i i i i i y y y w w 9 9 9 9 9 9 9 9 9 ",
"9 9 4 = = = = 4 7 7 4 1 1 = @ + + o X . . . X X X X + + + + # = 1 4 = : = = = 1 y i i i i 6 w w w w w y i w i y y y 9 9 9 9 9 9 ",
"9 9 4 4 4 4 7 9 9 9 9 7 4 4 = = = + + X X X X X o + = = = * = 4 7 4 = = = = = 4 7 9 9 w = = = : 4 4 4 4 4 6 6 6 w i i y 9 9 9 9 ",
"9 9 7 7 7 9 9 9 9 9 9 N N D 7 4 = * * + + X + + @ & = 1 1 4 7 9 N b v 1 1 = = 1 1 = 4 4 1 = = 4 4 4 4 4 4 = = = 4 w y y 9 9 9 9 ",
"9 9 9 9 9 9 9 9 9 9 A W } ! E 7 4 1 4 = @ = = = = = 4 7 7 9 y E ! W F b 7 7 4 4 = = = 1 4 4 4 7 9 9 9 7 7 4 4 = 1 4 7 9 9 9 9 9 ",
"9 9 9 9 9 9 9 9 9 9 P ) _ ! S w 7 7 7 7 4 4 4 4 1 4 4 7 9 w i E _ ! C b 7 9 4 4 = = 1 4 7 7 7 7 7 9 9 9 9 7 7 7 4 7 7 9 9 9 9 9 ",
"9 9 9 9 9 9 9 9 9 y i P S b 4 4 7 9 9 9 9 9 7 7 7 4 7 4 4 6 7 6 m c x 4 4 9 7 4 4 4 7 7 9 9 9 9 9 9 y y w w 9 9 9 9 9 9 9 9 9 9 ",
"9 9 9 9 9 9 9 9 9 9 9 9 9 = = = 1 9 9 9 9 9 9 9 9 9 9 7 4 4 4 4 4 4 4 4 7 9 7 7 7 7 9 9 9 9 9 9 y i i i i i y 9 9 9 9 9 9 9 9 9 ",
"9 9 9 9 9 9 9 9 9 9 9 9 9 7 1 4 7 9 9 9 9 9 9 9 9 9 9 9 7 7 7 7 7 7 7 7 7 9 9 9 9 9 9 9 9 9 9 y i i y y y y y 9 9 9 9 9 9 9 9 9 ",
"9 9 9 9 9 9 9 9 9 9 9 9 9 9 9 9 9 9 9 9 9 9 9 9 9 9 9 9 9 9 9 9 9 9 9 9 9 9 9 9 9 9 9 9 9 9 9 9 9 9 9 9 9 9 9 9 9 9 9 9 9 9 9 9 "
};
