/* XPM */
static char *_820905a49f6448efda5c51817005cbbyauhMslnVl4Kwv7n[] = {
/* columns rows colors chars-per-pixel */
"64 64 9 1 ",
"  c #0D0F08",
". c #3B2D1F",
"X c #401811",
"o c #414123",
"O c #465032",
"+ c #73413C",
"@ c #82674A",
"# c #A0695F",
"$ c #C49E73",
/* pixels */
"....X.....+X @ooo@.o@@@@@ @o@O@ +####X.@O@@O@@@@@@ .@oo@O #+++#X",
"@++++++++++#.@@@@$.o@@@@@.$@@@$.X#++#X.$$@@@$@$@@$oo$@@@@ ++++#X",
"@++.++++.+++ @@@@@.o$@@@@ @@@@$oX##+#X.$@@@@@@@@@@oo@@@@@.++++#X",
"@+++++++.+XX @@@@@.@$@@@o.@@@@$oX+++#Xo@@@@@@@@@@@.o@@@@@ #+++#X",
"@#++++++++++.@@@@@ @@@@$@.$@@@$.X####X.$@@@@@@@@$$.o@@@@@ #+###X",
"+X+++++X++XX.@@@@$ o@@@@o.@@@@@.+++++X @o@o@@@@O@$oo@@@@@ +++++X",
".   .  ....  $@@@@.   ..  .   . .            X.. . @$@@@@ ...   ",
"$$@@$oO$@@@@ @@@@@ @$@$@@@@@@@@.$@@$$@@@@@@@.++++#Xo@@@$o $$@$@$",
"@@@@@.o@@@@@ @@@@@ o@@@@@o@@@o@ @@@@@@@@@@@@ #X+++Xo@@@@@.$@@@@@",
"@@@o@oo$@@@@ @@@@@ o@@@@o@@@@@@.@@@@@@@@@@@@ #++++Xo@@@@o $$@@@@",
"@@@@$.@$@@@@.@@@@@ @@@@@@@@@@@@ @@@@@@@@@@@@ +++++Xo@@@@o $@@$$$",
"$$@@$oo@@@@o.$@@@@ @$$$@@@@@@@@o$$$@@@@@$$$@ #+++#X@$$$@@ $$$$$$",
"..... o$@@@@       ...  . ..... ..o..  ....  #+++@X        .. ..",
"+++++Xo$@@@@ @@@@@@@@@@@.X++X+o@oo@@@..@oo@o ++#+#X.@@@@@@@@@@@ ",
"#+++#Xo$@@@@ $@@@@@@@@$$oX###@@@$@@@@..@@$@@ ++++#Xo@@@@$@@@@$$ ",
"#++++Xo$@@$@ $@@@@@$@o@@.X+++@@@@@@@@..$@@@@ ++++#Xo$@@@@@@$@@@ ",
"#+++#Xo$@@@@ @@@@@@@$@o@O.#++@@@@@@@@..@@@@@ ++++# o$@@@$$@@@@@.",
"++#+#Xo@@@@@.$@@@$@@$@@@O.##@$$$$$$@$..@@@@@.##++#Xo$$$@$$$$$$$ ",
"++++#X.ooooo.@oooo@@@OOOo.+#+.ooooooo .@@@@@ XXXXX .ooooo@O@OoO ",
"++++#X ooo.oo....o  XXXX .###@o XXXXX o@@@@@ . ..... ...  +XXXX ",
"@+++#X@$@@@@@@@$@$.+#+##+X###@$.#####+.@@@@@ $$$$$$@$$@$@ #####X",
"++@++Xo$@@@@o@@@o@ ++++#+X###@@.#+++#X.$@o@@.@@@@@@@@@@$@ ###++X",
"++++#XO$@@@@@@@@@@ ++++#+X##+@@.#++++X.@o@@@ @@@@@@@@@@@@ ##+##X",
"@@@#+Xo@@@@@@@@@@$ X#+##+X+##@@ #++++X.@@@@o $@$@@@@@@@@@ #####X",
"++#++Xo@@@@@@@@@@$ +#+##+X##+@@.#++#+X.@@@@@ @@@@@@@@@@@@ ##++#X",
"                   ++++#+  .    #+++++           .     .  ##+@#.",
"$$@@@@$@@@@@ $@@@@.++#+++o$@$@@ ++++++.$@$@$@@@@@$.o@@@@@.#+#@#.",
"$@@@@@@@@@@@ $@@@$ +#+##Xo$@@@@ ++#+#X.$@@@@@@@@@@.o@@@@@ ##@+# ",
"@$@@@@@@@@@@ @@@@$.+++@#.o@@@$OX#+++#X.$@@@@@@@@@$.o@@@@@ ##@##.",
"@@@@@@@@@@@@ @@@@@.+#++#+.$@@@@ ##+++X.@@@@@@@@@@@.@@@@@O @@###.",
"@$@@@O@$$$$@ ##@@@@#####+o$$@$@.#####X.$@@$$$$$$@$.@$$$@@.#####.",
"$$@@@..o..o. +XX++.XXXXXXoOoo.@.XXXXX oo.......... OOoo.o X+X.X ",
"@@@@$.X+++++++X.X+ .OOoOo.+..X@ ooooooo..ooo XXX.X++.X+++ ++++++",
"$@@@$o++###+###### @$$$$@.####@ $$$$$O #@@@@ ++#########+ ##@@#X",
"@@$@$oX#++++##+### @$@@@@ #++#+ @@$@$o.@+@@@ #+++##++##@+ #####X",
"@$@@$oX####++@+++# O$@@@@ ++#++ @$$@$O.++@@+ ##+@##++#+#+ #####X",
"@$@@@oX++#+++++++# o$@@@@ +X#+#X@@$@@o #+++@X+###++#+#@++ ##+++ ",
"@@@@@@X++++++++++X @@@@@@ +++++ @$$@@O +X+++ +++++++++++X #+++#X",
"    ..             @@@@@@ . X.  . o@$@  .. ....     .  .. #++++.",
"@@$@@@@@@$$@ @$@@$.@@@@@@.$@@@@@@@@$$@.$$@$$$@@@@$.o@@$$@ +++X#X",
"o@@@@@@@o@@@ @@@@@.o$@@@@ @@@@@@@@$@$O.$@@@@@@@@@@..@@@@@ #+++# ",
"O@@@@@@o@@@@ @@@@@.o@@@@@.@@@@@@@@$@@o.$@@@@@@@@@@.o@@@@@.#++++X",
"@@@@@@@@@@o@ @@@@@.o@@@@@ @@@@@@@@@@@o.@@@@@@@@@@@.o@@$@@ +++++X",
"@$@@@@@@$$@$ @@@@@.@$$@@@.$@@@$@$@@@$Oo$@@@@$$$$@@oo@@@@@ #####X",
"o ........ . @@@@@. . ..  ...  ....o.. ........... o@@@$@ X   X ",
"oooo@. @ooo@ @@@@@..ooooo@ooooo XX++.+++++++ O@@o@ .@@@@@ @@OO@@",
"@$$$$@.$$@$@ @@@@@..$@@@$@@@@@$.###@@++@##++ @$@@$oo@@@@@ $@@$@@",
"@$@@$@.@@@@@ @@@@@..@@@@o@@@@@@.+##++++++#++ @@@@$.o$@@@@ @@@@@@",
"@$@@@@.@@@@@ @$@@$.@@@@@@@@@@@@ +##@+++++++# @@@@@oo@@@@@ $@$@@@",
"$$$@$@.@@@@@ @@@$$.o$@@@@@@@@@$.#@+##+#+#### @$@@@oo$$@@@.$@$$@$",
"@@@@@..$@@@@ @o@@@..@@@@o@OO@@@.+##+X.+XXXXX @@@@$o ooooo @@@@@@",
"..... .$@@@$  .      ..   ..X . #o  .o..XXXX @@@@$o .  X .XX.XX ",
"$$@$$@.$@@@@ @$$@@$$$$$$@.#+### @$$$$@.#@### @@@@$oX+#######+## ",
"$@@@@o.@@@@@.@$@@@@@@@@@OX#++++ @$$@@O.#@+## @$$@$oX#++#+++++## ",
"$@@@@@.@@@@@ @@@@@@@@@@$O.++++# #$$$$O.#++## @@$@@..#+++++++#++ ",
"$@@@$@.@@@@@.@@$$@@@@@@$o.#+++# @$$@$@.#+#+# @$$@$oX+++++++++X# ",
"$$@@$@o$$$@@ $$$@$$@@@@$@.#++#+ @$$@$O.#@### @@$@$.X+++++#++### ",
"@$@@@@ ..  .     . .. ....#+++#.o..o. .#@++#  .        .   XXX  ",
"$@@@$@.#++++++X+++ o$@@@@X#++++.+++#+.X+#+++ $$@@@@@@@@$O #++.+X",
"$@@$@O.++#+X++X+++X@$@@@O ++++#.@++++XX#++## @@@@@@@@@@O@ #+#+#X",
"@$$$$o.#++++++++++XO@@@@o ++++#.@+@++XX###++ @@@@@@@@@@@@ @#++#X",
"@@@@@O.#+++++++X++ @@@@$@ ++++#.@@++@..#++++ @@@@@@@@@@@O ##+#+.",
"$@$@$@.#@+###+++++ @@@@@@ #++##.@@++@XX#++##.$@@@@@$@@@$@ #+++#X",
"OOoOOo.XXXXXXXXXXX @@@@@@ XXXX..#@+++. X     o.oo.......  #++++ "
};
