/* XPM */
static char *_b5e7581fdd4473582375b34a23b0446HUlGpe6zpltjhNzf[] = {
/* columns rows colors chars-per-pixel */
"64 64 8 1 ",
"  c #222222",
". c gray20",
"X c #444444",
"o c #555555",
"O c gray40",
"+ c #777777",
"@ c #888888",
"# c gray60",
/* pixels */
"XOOoXX.   .XX.X +@#Xo+oX..oo .XXX   XXX..XXX..Xoo .XXXXXo+OooOOo",
"OOoXooo.Xo.o+@+ooOX oXX.X..X  XXo..XXXX..XoX.X.XoXXOOOoo+oXXoXOO",
"O..XXXX.oo.X+@+o    .. ...  ..XoOoOoX.X....X....XXXoOO+o+X..XXoO",
"o..XXoX..XX       .X ....    ..XooooX.X....... .XooXooO+o.XXoooO",
"XXX.o+o..        XXX...........XoooXoXX...XX.. .X XX.oOX...OOo+#",
"#oX.X@+X..      XX..X........XXXXoooooX.XXXX......  .XX.XXXXo+##",
"XXXo++#oX   ....XX..XXX.....oOoXXX......XoooXXXXX.     XOo@+O@@X",
" XOO++OX       .   .XXXXXXXXXXoOXX.......ooooo...      .O@#+O+o.",
"ooOoOoo.           .. ....XXXXOoX..... ....... .      .Xo@##+O@+",
"oXX..X. XX        ..X. .X.Xo+#ooo....  .X.    ..     ....O@+o+Oo",
"    .  .Xo  ..   ..XXXX.XoOOooXOoX...  ..... ...  ....X..XO..ooo",
".      X.X. ... .....Xoo++OX..XoX....  ....   ... ..   ..XX    .",
".XX   .X.X.  .X..X. XooooOoX..XOoX...  Xo.  .......X   .XXO.   .",
"oXXX.    XoX.oX.XoXXoXX.X.XX.XoOoooXXX.XX.  ..X.XX....  .ooX..XX",
"oX..XoX..oooooO+OOOX   .XX...XoO@O+++Oooo..X.XX.XX.   .       .o",
"XX. ..X...XXoO+OoX..   .XXX..XX@##@OoX....oo.XX.XXXo. ..     .o+",
"    ...X  X.XXOX.... ....X..X+@@##+oooXX. ...XX+X..oo..  ..oOOOX",
" X. ..XXXX. XXoo............X+@##OoOoX.XX.  .X.....Xo+@OoOO+XXo.",
"XXX..Xoo..X..... .....X...XoXXO+#@OOooXoX. ...XX XXXXO.o@+OX  O.",
"X....XXooX......  ....XoOOXX.oOO+@OooXXoX...X.. XooXo.  .XXo  ..",
"......XXXooXXXXX...XXo+OoOX.XooO+++oXXXXX...XX XOOoOo+O..XX.   .",
".XX..X.X..ooooX....XoOOX.....XXoXOoX.......XXo .oO..ooXoOOoXX..X",
".XXX.....oXoOXX...XXoOO..  ..XXXXXoX.XX....X. o. XXXXXooooOOo++o",
".XoX...XXoooOX.....XOOo....XXXXXXXX..XXX.XXOX.+OX .X++XOooOoOOX.",
" .ooXoXXXooooX...XOOXOOoX..XXXXoXX..XXXX..oO    XOooOXo+oOOO+oO.",
"   XooXXooooXX.XX+@O+OXX..XXoX.ooOXXo.XX..oX  .O@##+oOo. .XXX.. ",
"XX  .oOOOooXX.XXO#+++oX. .XooXXXoOOooX..XX.   XOoOXOOOX+O. .o..X",
"Xoo  XOOXoooooXo@#@OooX..XXX..oOOO++OoXoX.    o+O  @#O+@XoX.X+Oo",
" .XX. .oOoXXO@@@+O+ooX....  X.XoOOOoXX.      .+X X@#+.+X  ...X..",
" ...XX X#+OO####OooXo. ...XooO+@XX.     ..Xooo.X.XO  . .XXXXXXX.",
"   ..oo X++@@X.. XXoX....XOO@#+X    XOOoXooooX..OOX   o+o.oXX.  ",
"   ...XX X@O.     XX ..XXXXXXO. .  oOooooXO+ooOooO++OO+OO.XX... ",
"   ....  .XX.     .   ..XXXXX.XX. O+o.. XO+OoXoXoOOoXXXXOX .X...",
".. .   XX.XX .. XX.    .....XoooX.XX ..  ....XooooX..XXXo+o X...",
"XX  . o+XOOXoXX.o@.    .....XoXXX. ..oOXXX.  XooO#o..X.oOoO .XoX",
".....X.OXoX .XXXX Xo  . ...XXX....XoXO@#+OX..XXOXOX.XX.o.ooo..OX",
"     XX    O#@XXoXXo.......XXXXXXXX.o.X@OOXXo.+@X XXoOO.X.OoX+OX",
"Oo.   ..OOO+XooXXXXXX...X.XoXXXX..XX.  .X.   XOXOOoX.XXX++XooXO+",
"+@OooO.oooOoooX..Xoo.XXXooXoooX....X      oo.X+###OoX.Xo..X++oo@",
"+OOoOo@oX@OOOX....XXXXXXoooooXX....X.. OX...X@OO###@O.. XoooOOOo",
"OOO+o@@oOoXooXX..XXX.XooXXoooOOoXXXXX..oXooXooX..@@+OooOOXXXooOo",
"ooO@+oXXoXoXXXX.. ...XXooooOO+OoXXXoXXXXooooX.. X..++XXX.XX.XoXX",
".XXXOo@#OooXX...   ...XoooOOOooooooXXXXoXXooo..O+O+++X.. .XX.X..",
"..XXXOoOOoXXX........XOOoo+OoXOoOooXX.XX+++Oo+oXX+oo#......XXX..",
"....oXXXOooX.XX.X.XXXoOOOOOOoOOOOOOoooXOo ++oXXX   o+ .  X ..XX.",
"X..XoXXO++@OXXO+...+OoOoXXo++++OoooXoOOo   XX.Xo.    o..O+XoXX@O",
"@XXXX.X@#@Ooo.o#@  .XXooo+oXooOoXoXX.ooXXX...XXoX.oooX..XX. .XO#",
"O@+OoO@#@oooO++. X#O...o@##@@#OX+OoooO+oOXXXXXXXXoOOX.X.  .. .oo",
"o@@@@+@+X.XoOoo@@XO#oX###+##+O##+OO+++++oOXXXXXXXXXX.XO..XXXX...",
"..XO##@+o+ooOoOO .  X##+++O+oXo++O+@+@@o.XXXXXXXXXXXX..X.XOX.XXX",
"X.X+++OO@oXoO+oXXX.XXX..XooooX.+Oo+OooO..XXXXXXXXXXX.X..X.ooXXXX",
".XoOXX....XoXXO+o.XoX... .XX..O+o+##oO+XXXXoXXoXXXXXXXX.XX.Xooo.",
"X..      .ooXXXooXoXXXXX.. .XO+oX+#@Oo+@o..X..oXXoooXX..oXXXooOO",
"+oOOXXXXXXooXo+OXoXO+OO+++OoOOOXXooXX.Xo.XXX..oXXooXX....OX.X+@O",
"O+OOoXXXoXXooo++OXXO+Oo+@##OoooXXX.......oooXXXXXXXXXXXXX@o X##@",
"#oooXXX.XXoOoooOooo...X... .XXXXX..    ....XXooXX.XoXX+@X o.XO+#",
"@OO.XX...XoOXXoXX....XXX. ..XoXXXXX.. .O@OOXXX.XO+OoXoOX.XX..XX+",
"oOoXXX. XooXXXX....XXXoooooXooXXXXX. .@O++o..O+@#@XXXX...oO..ooX",
"O+OOoXX.XOOooXX.XoXooO@OoXOoXXoXX....o.  XX..XoO. oX.XXXXXXX oXX",
"XXXOO.X.oOOooXX..oOO+@#o..oO+#OoX..XX.XX.oo.. .OXO@OXooXX.XX..XX",
"     .. ..X.XoooX.XXO#@+OOX+##+XooXX..Xo.XXX..X+@XXX.XXXXXXoX.X.",
"    ..   .XXoooXooOXO@oO@##++#O.Xo.......XXX... XXXX..X.XoXXX.  ",
"...XX.   .XXoo..Xo+X.Xo+OXOOXO. X...  ...XooX.XXXXXXX.X.XooXXo  ",
".oOoX.. ...XoX.XOOOX.o+OX.XO..X.  .  .XX.ooXXXXX...XoX.XooooXoX "
};
