/* XPM */
static char *_93788e257bd41f3c29eea8e8b4b4a33eOVuF6Z4fkG0YrKZ[] = {
/* columns rows colors chars-per-pixel */
"64 64 8 1 ",
"  c black",
". c #111111",
"X c #3B2D1F",
"o c #222222",
"O c gray20",
"+ c #444444",
"@ c #555555",
"# c gray40",
/* pixels */
". O  OooOOooOo+o.oo##.oo .#.X##Oo+..     O#.o  O.o.oOooOoooOO.  ",
"O     ooooo.O.o@oOoo#@oo  O+##.oOO.    .ooOooo.o OOo+OOoOoo.o   ",
".     .oo.OOooooOoooo@o  o.O#OOOo.    o..oOoOOo o+O.oooOO.o..   ",
"       o..ooOoo...oOOo  .OoO@Oooo.   .o.oOooOo+ .Oo.OoOOooO..   ",
".        ..O+oooo.ooo.+O.oo@O@+Oo    .o.oOooOoOo Ooo+ooooOo.    ",
"         o.o+OoooO..o O+ooOOoo+@.   .oo..OooOoO..O.O+oOOo. .    ",
"         .o.OOooo .oo.++OOoOoooOo . .o o#oooOoOo oooOoOOoo      ",
"    .o    .OO+..o..oOOo. .oooOoooo .O..+#oOOOoO+oooOOOOOoo .    ",
"   ....O   .             O      .  .. .oXOoo.  .     .. .       ",
"OoO@+OO@OO.OOO@  o .    . .        X###########@@Oo.   .       O",
". oO.o.o.O+@@+oO++Oo+o+oXXX+OOoOoo.oOO###@+OOO+OOO+Oooo      .oO",
"O@OoO+OOo++X+X+++#O oo@..@O@+OoooOo  +#@.OOo.. . .OOO..      OO.",
"Oo.o.oOoo+@##o#ooo+.XOo.oOo.oooo.oo.O#O.OOo..oo.oooOo. .     oO#",
"oo.. oOOooOOOo+O@o@oXXOoooo..oOoo.oo+#.oooo o.....o+O.. .    OOo",
"oo.o o+o.oOOo +o@OO ++@O.o..oO.oo...#O.oooooo.... .Oo....   .OXO",
"ooo..  ....ooo  oO  @oX..  .o.     o#...    .      o.       o @+",
"o..ooo.o...oOo X  .. +Ooo..o..o....@# ...o         .        O.oo",
".ooOOo.oo.oooo #+X#X.. ooo.oo.oo.oO@o.+OOOO.oooO         . .Oo@.",
"....o.oO..ooOo #OX#ooo.o..oo.ooooOO@.ooooOoooooOo. oo.  .  oo.o.",
"...Oo.o... ..  +X@#.oOX. ooooO..o.+@o.ooOo..ooOo.ooo....  .+.o..",
".....oo. o.   O#o+O.oo#+  .ooo...oOOo.ooOooo.oOo.oo. .  .... .O.",
"o...X...o .oOOO@o@@o.O@+o.o...o..oo.ooo.oOooooooo.....    ... Xo",
"....XOOo...o.o +o+ooO#+Ooo..o.ooo.ooooo+oO  oO..  .oo     ..o.oX",
"o    .oo....o +#.ooo@@OOo.. oo.oo .ooooOOOo.ooo...ooo      .  oX",
"oo..o      .  #X+   ooXX..oo.o.oo....oo ooooo.o.oo..o    .    ..",
"o.XooX.oo... +@ O+X.O.@..ooO+O.o....oooOOOoo..o.o...  .  ...oo..",
".oo.ooooo.   oO.+O+@X  .Oo. .........oooOOo.o.oo..o...   .o  .  ",
" ooooO.....   .+     X.. .ooO+O... ...ooOoooo.oo... .    . .    ",
"  ooo......  ..    oOo.o   ooXo.oo.oooooOoO........ .   o..oO   ",
"o. o..o...  .X.XXXX+ooo.oo. .o.oo...ooooo.  .... ...... @o o.   ",
"Oooooo......OX@#XX@+oO...oooXoo.......Ooo  .  .  . .....OO+o..o ",
"+..oO.........@@o@+XXO o .o.ooOoo..ooO..o .... ..  O..ooO@+o +@ ",
"oo.oo.o...o.. Oo.ooo#oOO .o.oooo..o..o.o.....  .o..O..ooo.oO O+#",
"o.oo@ooooo. .  ..  oOo#O .. oooo..o..o........  o.o O oOO.ooo +#",
"oOoo+o  O+O+O++ .. o+..O .. .oOo ...o@........o.o    o++OOooO.O+",
".oOoo. oo.ooooOo  .#o+@..oo. oOOO ..oO.o..  ..  O  X@O+OOOOOOOo+",
"ooOoO .o.  ooo.o. o# +   O.XX.ooO...O.oo....o.oOo @#OooOO##O.Ooo",
"O.OOO.oo.  ..   oo+##@@.  .oo .o..o.ooooo....ooO .@#OOO+O@Oo+OOo",
"OoOO.oo..    .OOoO #+##+o.OOOo..  .    o.o..Oo     oOOOo++oo+ooo",
"o+.OOO+oo+.+##++Oo++##O+ooX+@+OO .OO@o.  o +o     #X.o oX@O.o+OO",
"@#++@#@Oo+oOo.OoO@o.OO... o   .O+#O+O.+++OO+@+O.  ##@     .O@+@#",
"o...o+o .o....o+.@.O.oo o . ..OoO#oo. O...ooOOO ..  +.oooo.Oo..O",
"oo. O+...o..o....+.oo.o.o  o oo.o#oo..OoooOo.oo .+. .oO++++Ooooo",
"ooo.o+o.o..o...o.@.OOo.oo  o .o.o#ooooooooo..O  o.   o+++++O.o.@",
"..ooooo.O.oo.....+oOOoooo.Oo  ..@@.oooooOO...o  O .  .++@+OOo.o@",
"...oooOo.oo .. ..#O.Ooo..oo+  .O#ooooo.oOoooo. +o ..   +@+OOooOo",
"++ooo.OO..o ..  .#OoOo.Oooo##o oOooooooOoooO.  #o . .  .@oo+oooo",
"+OOO.OO+Oo.oo..o O+ooo.Ooo+#@+      ooOooooo  .+o.. oo  OoOooOoo",
"+oo+ooo.OO.o..o..oX.oo.oo.+##        OOo.oo.  @o ... Oo  .oooooo",
"++oOOo.oOoOo.oo..OO..O.o..O+@  o.OX+ .Oo+Oo.  OOoo... o     .ooO",
"@OoOOOoOooOO.o..ooXo Oo.o.+#o... oXo+ .OOoo  oO+OOO.....  .   OO",
"@OOo+o+oo... ooo. +o.Ooo. ++..o  oXXO. oo.   OO#@O@o.  oO.  o. O",
" Xoooo@X+OO+o    .oo ooo..@o.oo ooX#.oo o    @o+++OXX@.  o      ",
" .O@oO+OO#+OO@@O+ooOoOo..o#...o OX##XX.     O#O@Oo.. +#@o       ",
". .ooOoooooooo++O+#+oooo.O# ..ooo#@@#@+O    +Oo+#@o. X+o##      ",
"    .OO.oOoo.oo+o..O@o.oo+o.ooo+#OoO+X++ ++.O+o.O#+. X@oo@+#O   ",
"      .OOOo.ooo+@oooo#ooo#O...O#Xoooo+o O#  O+ooOo+o o+OXXo++O  ",
"o       oo.ooooo#+oOo+@..@Ooo. O.o.oo@@@#  +@+O+..#O.OOOOoOo.o.O",
"XX   +o. .ooOoooO@o...O#+#..oooo.oooO@@O   ##+O+oo+..o.O.ooooo o",
"XXoXO+ooo .o.o.ooOoooO.@#+ o.O#.oooO+XX   .@#O@+o. .oooOooO+Oo  ",
". X. oOoOooo..Oo.++ooooo+O.o.Oo.ooo@XXo   o##+O# .OOoooOoooO+O .",
"ooX   OooO+Ooooooo+oooOooO oooooo.O+oo     OoO@@. .ooOoOO.ooo.  ",
"OXoXOooOoO+++ooooo@+oooooo@. .... +Oo     @OOOoo..oooooooo.oo. .",
".XX.+OoOOOXooO.oooo@Ooo.o ###. ..oOo.    O#   O+. o.ooOOoo.... o"
};
