/* XPM */
static char *_32a753e4d8143a4c730ab357eadc3867kDWcA1ub7bU4Mzo[] = {
/* columns rows colors chars-per-pixel */
"64 64 8 1 ",
"  c #3B2D1F",
". c #73573B",
"X c #7E6E60",
"o c #8F7357",
"O c #C7A37D",
"+ c #F5B99B",
"@ c #E3C7AB",
"# c #EDEDC7",
/* pixels */
".  oO ooOo oooOOOoOOOO@OO+@O.O@OOOoOOO@ooOo++O.o#O@@@@O@OO@@O@Oo",
"o oo .O@. oOOoOOoOoOO@#@@@@+O+OoooOOOOooo.OO@o.@@O+@@@#@OOOO@O@@",
"o o@oo@o oOoOX.ooOoOOO@@#+++OOOoOOOOOOOoOoOO+..@O++@+@OOOOOOo@OO",
"o.@o.OO .OOOO oOoOO+@OO#####@@oOOooOOOOo@oo+O.o+O++@@@O@OOOooOOO",
"..O oOo OOOOO.oO+OO+++O@O@#@@OoOOooOOOOOO.O+O.OOO+++@@@@OOOo+Ooo",
".O...oo.OOOOO.O@OOoOOOOooOOoOoOOOooOOOOOoO+@ooOOO@@+#@O@O+ooO.oo",
"Oo.ooo.oOoOO..OOOOOOOOOOOo.O+@#OOooOOOOoO@O@oO++OO++@O#@o+ooo...",
"@.o.oOoOooo. OOOOOO+O.oOOOOOOOOoooOOOOoo.o+o.+#+O+OO@#@OO@oooo..",
"ooOoOooOoOo oOOooOO@@OOOOOOoooooooOO+O..oOO o+@@++O@#OO@O+O....O",
"ooOOooooOo.oOOOoOO@@@@OOOOOO@ooooo.o+..OoO..O+#@+@@#oO@O++OoooOO",
"OO.ooO.oOooOOOooOOOO@OOOOOOOoOooOooo.oOoOo.OO+#oOO@OO@OO+OO..OOO",
"O  oOo OOoOOOOOOOoOOOOOOoOOOOOoooooo.Oo.o.o+O@+OOOO@O.O+O+@OXooO",
". ..O..OoOOOOOOOOOO@OOOOoOOOOOo.ooo.oooo..Oo++OoO@OO oO++@@O@@oo",
" O.oo .OoOOOOOOOO+OOOO@OoOO@OoooooooOooooOOooo..oOOOoO+@##@#oOo.",
"...oooooOOOOOOOOOOOOOOOOOOOOOo.oo.ooOOOOOOOo..oOOOOO@@@@#@##@ .o",
". oXooooOOOOOOOOOOOOOO@@OOOOOoOoo..ooOOO+OO+OoOOOOOO@@OO###@#oo ",
"X o.o..oOOOOOOOOOOOOO@@@@o.Oooo.ooooOOO+++OOOOOOOOO@@O@oXO@@#..O",
"o oo..oOOOOOOOOOOOOOO+@OO oOoo..ooOOOOOOOOOo@@O@+++@##@@@oO##O O",
"X ooo.oOOOOO+OO+OOOOO@@O..oOoOOoo..O.o+OoO.OOoOOOO@O@@###@@@O  .",
"..Ooo oooOOOOOOOOOOOOO@.XooOoOOoO.OOoOOO+OoOO@O+OOOoO@ooooOo. O.",
" Xo   .oOOOOOOOOOOOO@@o.o.oooOooooOoOOOO+.oOOO+OOOOOO@#@OOo.OX .",
" oO .oOOOO@OOOOOOOOOO@oo oO.Xoooooo@OOOOooOO+++OOOO@OO@@@O@oX X ",
"Xo. ooO+OO@OOOOOOOOOOOXXXXo..ooooooooOOooOoO@@OOOO++oO+@@Oo.o. o",
"o ..oOO@OoOOOOOOOOOOOo..XoX oo.OooO.oO.o+o.ooOOOOOOOO+OOOOooo. X",
".ooooOO@ooOOOOOOOOOOOoo..o oooOoOOOOOOo+OOOOOOOOOOoOoo+@@@@@O...",
".o.oOOOO.OOOOOOOOOOooo.OooooOO@OOOOOOOOOoOOO+OOOOOOOoOoO+OO@OoOo",
" ooOOO+OooOOOoO.OOOooO@ ooooOOOOOOOOOOOOoOoOO@OOOOOOOOOOOoO@OOOo",
"oooO@O@OooOOOOooOoOOO#X.OoOOOOOOoOOOOOooOOooOOO+OOO@OOO+@@+@OOo.",
"o.oOOO@oooOOoOOOOoooOoo@o.oOO@@.oOOOOo.OOoOoOOO+OO+OOO@@@++OO+o.",
"OoOOOOOoooOOOoOOOo.oOoO@oOooO@Oo.ooOO.oOOOO+OOOOOOO@@+##@OOO+OOo",
"OoOoOOOOooOOoOOooooOooooo@O@@OOO.ooOO.ooOOOO#oO+OO@+O@++O+OO+Ooo",
"o.oOoOOOo.OOOO..OOOOOooOOOOo.oOooOOOOOo.oOOOOo+OO+++OO@@+@++OOoo",
"ooOOoOOO..oo.ooOOO+O@..OOOX.oOOOO++@O@X .oOOOOOOO@OO+OOOO+++OOOO",
"OOO+OOOO..oooooOOOOOO.oO@OOOOooOO++@oOo X.oOOoo@O@OOOO+OOOOOOOOO",
"OOO++OOOoo@o.ooO@OOOOooOOO@OOOooO+OOO@@  OoOOoOOOOOOO@@OOOOOoooO",
"OOO+OOOOOOOooo.oooO@OOOOOOOOOOOO@OoOO@XX Oooo@O@OOO@@@@OoO+O..oO",
"@#@OooO@oo. o o..oooOOOOOOOOOOOO@OXXXXXX OoX@@OO@@@O@@@@O@OOooO@",
"@@@o ooO o...oOoooooOO+@OOOoOooo#X oX.XX OOoOO@@O@@@@@@OOOOOoOOO",
"@@@ooooooOoooo.oOooOOOO@OOOOO.oOOX...@O oXOooO@OOO@@@OOOO@OOooOO",
"@@OoOOOOOOOoo..oOOOOOOOOOOoooOOo X o O ..XOO@O@O@@OO@@oOOOOoo.OO",
"OOOoOOOOOoooOo.oOOoO@+OOOOO@.OOOoXXoOX..Xoo@@@OOO@@OoOOOoOOOoOOO",
"OOOO@OoOo..Oo oOOOOOOO+OO@OOo.oooXXOo X OOOO@OOOOO@OXoOooOOOoOOO",
"OoOOO.oOoooO.oOOOOOO@++OO@oOO ooo.XO. .XOOOo@OOOOOOOooOooOoOoOOO",
"ooOooo+ooooooOOoo++O@OOO@@o@o.ooooOo  XoOoOO@OOoO@@ooOOOoOOoooOO",
"oO@OOOo.ooOOOooOooOOOO@OoooOOOOOoooo. XXOOOOO@OoO@o.oOOOOOOoOOOo",
"OOOOO.oOOOOooOOoooOOoOOoo.ooO@@O.XoX...oOoOoooOoO@ oOOOOOOOoOooo",
"OOOoOoooOOooooooOOOOOoOOO.oo@#@O  oXO.XoOooo@OoO@o.OOOOOOOooOOOO",
"OOo.OOoOOOooOO.oOOOOOo+O.o# o##@  o...XoOoOoOoOO@.oOOOOOOO.oOOoO",
"OoooOOOOOooOOO.oOOOOOOOOo##Xo@#@X ooOo.oOOOOooOo..oOOOOOOOOOOOOO",
"ooooOOOOOOOOOo.ooOoOOOOO@##@oO@@O OOOooOOoOOOOo .OOoOOOoOO+OoOOo",
"oOOOOOOOOOO@O.oooOO@@O@@@oOO@@#@.X.oooOoOO@OOo.oOOOOOOOooOOOoOoo",
"oOOOoOOOOooOo.o.ooOO@OoO@O#O#oXX   oooOOOOOOo.oOOOOoO@Oo@@ooooOo",
"oOoOOOOOOOOooo.oXo+O.O@OXO@@@oO   .oOoOOooOOoooO@OOOO@OO@OoOOooo",
"oOOOOOOOOOOoo....O@OO+@OOO@#oOO .oOOOOOOooOooOooOOOOOoOO+OoOOOOO",
"oooOOOOOOOOOoooooOOO+OOOO@#@OoO..oOOOOooOoOOOOOOOOO@OOO@@OOOoOOO",
"oo.OOOoOOOOOOOoOOO@@+OOoooooX.. ooOOOOOOoooOOOO++OOooOOo..O@O oo",
"oo.OOoOOOOOOO..oOO@@OOO@@Oo....ooOOOOOOOooOOOO++OOoOOOOo.ooOO.Oo",
"O.oOOooooO@OOOooOO+@OOOO@@+OOoOOOOOOOOoOooOo++@OOoOOOOOOOooooXo.",
"O..oOooooOOOOOoOOO+OO++OO@#@OO@@@OOOOoOOOo.o++Oo@oO+oOOOOOOooo.O",
"o..OOooOoOOOOOOOoOOOO+++O##@@@@@OOOOOOO@Oo O+O+O.OOOOOOOOOOOOooO",
"o.ooOOOOoOOooooOOO.O@OO@###O@@OO@OOOOO@+OOoO+++O.OOOO+OOOO+OOooo",
".OooO..O.@oXo.ooOO.OOOXOO@OO@oO@#OOOoo@OoOo+O+OOOO@++OOOOOOo@Ooo",
"O@ooo.o .@Oo.ooO@ooOO ..@Oo##.O@@OOO@o+OooOOO+O.@O+@O@@OO@OO@ooO",
"o. oooo.OOoX.oO@OoOOooOO#o@@o.oOOOoOOO@ooOOO+OooOO@OO@OOOOOOO@.O"
};
