/* XPM */
static char *throne[] = {
/* columns rows colors chars-per-pixel */
"64 64 37 1 ",
"  c #c94c4c",
". c #040202",
"X c #060303",
"o c #060403",
"O c #0F0305",
"+ c #0B0704",
"@ c #0D0406",
"# c #0D0C0C",
"$ c #120903",
"% c #130C05",
"& c #1C0E06",
"* c #1D0D0B",
"= c #19110C",
"- c #280707",
"; c #2E0509",
": c #220908",
"> c #320609",
", c #35070C",
"< c #3A070C",
"1 c #26180C",
"2 c #2D1E12",
"3 c #3B1A1E",
"4 c #362416",
"5 c #3E2918",
"6 c #45111B",
"7 c #471F29",
"8 c #501623",
"9 c #591D29",
"0 c #621E2C",
"q c #463121",
"w c #4F3C2D",
"e c #58402F",
"r c #644A37",
"t c #655240",
"y c #6E5E50",
"u c #856C55",
"i c #C6AC93",
/* pixels */
"                                                                ",
"                                                                ",
"                                                                ",
"                                oo                              ",
"                               .rr.                             ",
"                             ooq44w.o                           ",
"                          oo .+5q+. oo                          ",
"                         .e1oi%&&%uo4r.                         ",
"                    ..  .roe$oqqqqoor+t+  oo                    ",
"                   .tro  ow.qqooooqqoe.  .rr.                   ",
"                  ot44yoow24oo,,<,oo42t..r24t.                  ",
"                 .r44#%qq2oo<<99993<+o255+%44to                 ",
"                 .r44++ooo:30,,,,,,03:ooo++44t.                 ",
"                 .r4++,,,.39,,,,,,,,96.>33++4t.                 ",
"                 .r1o,996.9,,,,,,,,,,9.999,o4r.                 ",
"                 .r1o9,,,+,,,,,,,,,,,,+,<,9.2t.                 ",
"                 .r1o9,,,.,,,,,,,,,,,,o<<<9.4t.                 ",
"                 ot1o8,,<.,,,,,,,,,,,,o<<,9.4t.                 ",
"                 +r5o9,<<,.,,,,,,,,,,o<<<<9oeto                 ",
"                  oe1.,<<<.,,,,,,,,,,o<<<<.2e.                  ",
"                  .e1o8<<<+,,,,,,,,,,o<<<3o2e.                  ",
"                  .e1.8<<<+,,,,,,,,,,o<<<3.2r.                  ",
"                  +e1o8<<<.,,,,,,,,,,o<<<3o1ro                  ",
"                   oeo><<<o,,,,,,,,,,o<<<-oe.                   ",
"                   oe+><,,,o,,,,,,,,.,<,<-oe.                   ",
"                   +e4o,,,,+,,,,,,,,+,,,<o4ro                   ",
"                   +r4+,,,,+,,,,,,,,+,,<,+2ro                   ",
"                    +wo,,,,+,,,,,,,,+<,<,+wo                    ",
"                    ow+,,,,o,,,,,,,,+<<<,owo                    ",
"                    +w4o,<<:-,,,,,,--<<<o2wo                    ",
"                    +w4o;<<:-,,,,,,--<<-o2wo                    ",
"                     o4.;<<<@,,,,,,+<<<-oq.                     ",
"                     o4o-<<<+,,,,,,+<<<-+q.                     ",
"                     o4o-<<<+,,,,,,+<3<-+q.                     ",
"                     o4+-<<<+,,,,,,.<3<-+q.                     ",
"                     o4o-<,<+-,,,,-.<<<-+q.                     ",
"                     .4o-;;;@-;;;--.;;;-+q.                     ",
"                     .5oo++@@@@@@@+++++o+qo                     ",
"                     .o.<,,,,,,,,,,,,,,,+oo                     ",
"                    o<366666677777788777333o                    ",
"                   .,67666777777777777778833o                   ",
"                   o696776667777777777777793.                   ",
"                  .39900000000000000000000993.                  ",
"                 o><,,,777777778888888888,,>3<o                 ",
"                 o<,,,,,,,,,,,,,,,,,,,,,,,,,<<o                 ",
"                 +,>,,,,,,,,,,,,,,,,,,,,,,,,>>o                 ",
"                 +*-----------------::::::--;Oo                 ",
"                  ++++ooooooo++++++ooooooo++++                  ",
"                  oq44444=111111111111144444wo                  ",
"                 .w&q5+o.qqq=qq&%qq14qq.o+4q1r.                 ",
"                 .w%qo+4..oeeq%ww$wwwooo4++5&r.                 ",
"                 .w%qoo4o  oo.w%&w..o  o4+.4&r.                 ",
"                 .e&. o4+     oo..     o4. .1r.                 ",
"                 .e%. o4o              +4o .1t.                 ",
"                 oe4. o4o              o4o .qw.                 ",
"                  ow4o#2o              o4#o5q.                  ",
"                  owq+#2o              .2++qe+                  ",
"                  +ww++2.              o2++weo                  ",
"                   owo...              oooow.                   ",
"                   .w.                    .w.                   ",
"                   .w.                    .wo                   ",
"                  oww.                    oqro                  ",
"                  .wq.                    o5ro                  ",
"                   o.                      oo                   "
};