/* XPM */
static char *cb6ad08e7b264b29d2a54fa121743d5bRLpsOU4SIP6GO2Me[] = {
/* columns rows colors chars-per-pixel */
"64 64 8 1 ",
"  c #3B2D1F",
". c #401811",
"X c #5F3214",
"o c #7F3F00",
"O c #73573B",
"+ c #8E7357",
"@ c #A6A090",
"# c #CBAA89",
/* pixels */
"XXO+X..+++++OO..XXXXOo+XoX..X+####+..XXOX...XOXX..XO++OO .XXXOOO",
"OOOO..++++OOO.O..XXXo+OXX.. #@###+XXX.XOXXXXXX...++.XOOOO ..OOOO",
"X.X..+@++OOO XXO.XoOOoOo.. ++#+@+XO+X..XXXXOO...+#@O XO++OO.XOXX",
".X..+@+++O .OOOXO..oXOX..O##+#+X.OOO+OX.XOO+X..#####O.O++O+O..XX",
"X..+@+++O ..XOOO O..XX..O@#+#@O..X+XOOX..OXX..###@#O...XOOO+O..X",
"..O@++++.....XO@OXX....O+#@#@O..X.O+X+OX..X..+#++++.XX. X OOO .X",
".++@+++ ..XXX. ++OO+..X++@+#O..XOX.X++OXOX..+#++#+....X..O++OOX.",
" @@+++ ..OXXX..XOOOOXO++++# ..X+++O.O++OOX.X#@+#+X.OXXXXX.XOXOO ",
"X +@+ ..X++XXOX. OX.O++@O#O..X+o+++O.X++OXX.O+++X.XXOX XX..X XOX",
"OX + .XOX+O+++XX.XXO+++#+O..o+Oo+OoOOXXOOOXXXX+.XX XXXX..X..X.OO",
"XXX...OO++o++oOX..O+#+++O..O+O+OoX.XOX..O+OXXX.XOOOOOOOXXOX..XXO",
"OXX..XoOXX+o+OX..O++@++O...XXoOo+OXX..XOXO++XX..OOXXXXXXXO..O XX",
"XOXOX..XXXOOXX..O+++#+OXOX..XOXXXoOX..##O.X+OXX..XOX.X.XX..+@OX.",
"XOOOX...XoXXX..X+O++#O X OX..o+XXXX.X+###OXXOXXXX.XXO XX..+@#@+X",
".XXXXX..XXOX...OO+++O.XOXXOO..OoOX.X+####+.XOXXXX..XOXXX +++@++ ",
"..XXXXX...X..OOOO++O... OOOOX.XOX.X#+@### XXXOOXXXX.XX..+@+@++..",
"...XXOXX....XOOO+#O..XX.OOXOOX.X..#####@XXXX.XOOXXXX...+@O+++ ..",
"XX..XX+OX..XOOO++O..oOOX. OOOOO.X###@#+..XXX..XOOXXO..@@++@+X.XX",
"XXX..XXOX.O+OO++O..XXO++X.XO++ X+++##+X.XXOOXX.XXOXXO.O++@+ ..XX",
"XXOOX.XXX++O+++O..XXOOo++X.O+OO+OOO@+..XXXXXXOX.XO++OX.O@+X.XOXX",
"XOO+o...O+O+++O..XOo+oO++OX. O+OOO#+..XXXXXOOOOO.X++++X.X .XXXXX",
"OXXXXX.XOO+OOO..XXX++XOXoOX.X++OX+#..XOXO++OXXXX..XOOXOX..XX.XXO",
"OOOXX.XOO+O+O...XXO+O+OOOX..+++X+#OO..OOOOOXXOX..+OXOOOOOX.XXXOX",
"XXXX.O+++O+XXOOX.XoOo+oXX.X++++++XO#+..oXXXXX...+#@OXo+OOXX.XXXO",
"XX..XOO+#+O.X++XX.XX++OX..++#+#+O+++++.XXXXX...O@#@#O OXO++..XXX",
"X..XOO++@O..XOOOO XX++X.X++O++O..O#++#O..XXX..++#@++ .X+O++OX.XX",
"X.XOO+++O.XX.XO++OX.XX. @#O++O.XX.O++XOX..X..++@++@X...X+++++X.X",
".O++O+@O..XO..O++XOX.. @#+O+O.XO+X.X+XXOX...++@+@+..XXX.X++OOOX.",
".+++O+O..XXO+X.XOXOX. +@#@+OXXXO++O.XO+++O.O++++# ..XXOX.X#++OO.",
".O+++O..XXO+OOX.XOX.O@++@#O.XOXX+++O.X++++X.O++@..XXOOOOX.X#+#+O",
"+XX#O..XOOOOOXOX.X O@@++@+..XXXO++#+XXXOXX+XXO+ ...XOXO+OX.XO+#+",
"++X ..XOXOX+O+OO..O@@#@@+.XXXXXX#++oXX.XXXXXX.X.XXO+OXXO++O.Xo++",
"++OX.++OOOO+OOOOX @@@@@@ .XOO++#++#+X..OXOXXOX..OO+#+OOOOOXX X++",
"+++OXXOOX++O+OOX+@#@@@@ XO.++++++#+o..O+OXXO+#O.XOOOOOOXOX.O#OX+",
"O###+ .XX++++OX #@@@@@XXOOOXX+XX##O.XO+@@+X+###O.X++oOOOX.O#@+OX",
"X++#+XX.XXXOX.O+@#@@@X OXXOOXXOXOOXX@+++#@XX+O#+XXo++++X.O#@+##X",
".XXOOOX..XOX..++++@@...XX XX .XOX.X++++++OX.X+#+OX.XOoXXO#+O++O.",
"X.XXOOXX.... ++O++O.....OOX XX....+@++O+ .XO.O#+#+O.XX.X+@+++O.X",
"XX.XXO+OXX..O++O+O...X+X.XOXX X..O@OO+O .XOOX.X#+#+o..X++@+#O.XX",
".X..XO++OX +++++O..XOOXX..O XXX.O+++O+X.X++o+O.X#+#+O.O++++X..XX",
"XXX..XXOXO+++++O...XXXXOX..XOO OOO@++ .XXXOOX+X.O#++#X.O++O..XXX",
"XXXX..XXO+@+++O..XOXXOXXX...X OOO+#@O.XOXXoOoXXX.X#+++X.OO.XoXXX",
"X.XXX.. +@+++O...XOXXXXXX....O+O+#@O..XOXXOX+XXX..X+O++X...OXXXX",
"...... @#@+++...XXX...X.....OO++#@O..X+++XXX++X..XXXOoOOX..XX..X",
".X....@++++O XX..OOoOXXXX..O+++@@OX+O.Xo++XXXX...++XXOO+OX....XX",
"XXX..++++++XXXOO.XXO+O+X..O++O+#OX++OX.XOoXX...X+++OXXoO+OX..XXX",
"X...++++++..OOXXOX.XXOX..O++O+O..++O+OX.XOOX..X@+#+OO.X+X+++..OX",
".. +++@++. XXXXX+OX.XX..++@@+O....+++++X..o..X++++OO...X+O+#O.XX",
". ++@@++ XO+ XO+X++....O++##+X.XX.X+O+#+X...X++++#O..XX.X++++X. ",
" ++O@++.XO++O.XOXO+O..O+@+++X..XXOXX+O++@X.X++++++.XXXXX.Xo+#+O.",
".O++++. OO+OXX.XXOoXXO+++++..XOXXXX..OO#+OXX++++OXXXXXO+X.X++O+X",
"X.O+O .OO OX XX.XXXX+##+OO..XO+OOXOO..O#+O+XX++O..XOOO+XX..X+XO+",
"OX.O..XOOOXXXOOX.XXOO+++O...O+XXOO++O..OOOOOXXO..X.X+OXXXXX.XX++",
"OOX..XOXXO+XOOOX..O++++O .XO++++XXXXX...XOO++ ..XXXXXX.XXX....X+",
"+X++. OO+OO++XO..OO+++OXX..X+++++OXXX..+.XO+++O...XXX.XXX.. +X.O",
"+OO+O.XO+XXO+O.XOO++OOXXXX.XX+++O+OX.O+++.XOO++O.XXXOXXOO. ++OXX",
"X+#OOX.XO.O+OX.OO++OOX.XOOX..O+oXX...O+#@OXX++O+O.XX.X.X..++++O ",
"..O+XOO..OOX..OO+#OOX.XOOO+OX.XXX..OO+#@+O..O++++O..X.X. +++++O ",
"X.XXOXOO.XX..OOO+OOX.X.XXO+OO..X..OO+@++O....O++O+O..X..+++++O.X",
"XX.XOOXOO...OO++OOX.X+O.X+OX+XX..O#@#+OO..XX..XO+++X...+++++OX.X",
"XOX..OXXOX.O+++OOX.XXO+X.XOXOOX. +@#++O..XXX...XOO+@X.+@+++O..X.",
"OOXX.XOXX +OO#++ .XOOXoOO..OOX.+####+O..XXOXXX..OO+++ O+@+O..XOO",
"XXX X..X ++++++X.XXXoOXOoO.XX.O#@@##+..XXXXXXXX..O++OOX +O .XO.X",
"XOOXOX. O++++O...OXXOoXo+oX..O#@##@+..XXXXXXOXXX..O++OOO X.X XOX"
};
