/* XPM */
static char *out[] = {
/* columns rows colors chars-per-pixel */
"64 64 11 1 ",
"  c #3B2D1F",
". c gray19",
"X c #73573B",
"o c #234146",
"O c #555555",
"+ c #846F5C",
"@ c #8C805A",
"# c #57738F",
"$ c #758387",
"% c #A6A090",
"& c #CBAA89",
/* pixels */
"+X@++OOXO$oOOOOOoooOO+&%$O.oOOO++OOO#OOOO+O##o.OOOOOOOOOoOOooO%+",
"+X+++OOO.OOOOOoooooOOX&%+OoooOO++O..ooOOO+O$#O.OOOOOOOOO.oOOO$+O",
"+OOX+OOO.O.OOOOOoooOOX+++X.OO$O++$.oOOOOO+OOOO.OOOOOOoOO.OOOO$+O",
"+++++OO .OOOOOOOoo.O++++%+.OO$O++$Oo#OOOoOOOOO.OOO++$OOOOOOoo$++",
"+O@++OOOOOOO+OOOoo.O++++%+.OOOO+++OOOOOooOOO$O.O.OO+$OOOOOO.OO++",
"+O+X+O.OOO.++OOOoo.O+X++&+.OOOO+X+OOOOOooOOO$O.O.OO+OOOOOOOOOO++",
"OO+++O.OOO +X.OOoo.OXX++%+.OO ++O+OOOOOooOO$$O.O..O+OOOOOOOOOO%+",
"+O+++O XO X+X.OOoo.O+X +O.OOO.++O+OOO$O.oOOOO+.O..OOOOOOOOOOoO++",
"OO+++O XX ++OoOO.O.OOXX++O.OO.++X++OO+O.OOO$O+ O.oOOO++OOoOOo+++",
"OOOO+O X+ ++.O.O.+ O+X ++O.OOO++X++Oo++.OO+O$+ O.oOOO++OOOO.O+OO",
"OOOO++ X+X@@OOOO.+ .XXX+$OOOO.++X++Oo++ooO++++ ..OOOO++O.+O.OOOO",
"OOOO+O X++%&OOOOo+ . @&+$OOOOO++X@+Oo++ooO%@+O.O.OOOOOOO.%O.OOOO",
"OOOO+O.O++&&O.OOO+Oo.X@+OooOOOO++&+OOOOooO%&@+.O.OOO$+OO.%O.O+OO",
"O.O++o..+X&&+.OOOO.OOXX+...OOOO+@++O$OOooO%&&O.OOOOO$OO. &OOO$OO",
"O.O++oO.+X+&O.OOOO OO+++..o$oO+@&@OO$OOooO+&%O...OOO#O+ +&O.O$+O",
"+OO+OoO.+X+ O.OOOO + X@+O.o#o.+@&&OO$$$ooOO&+.OO.OOOOO+ +& .O$+O",
"+..OOO..OO..+OoOOO OOXX+OO.ooO+&@&+O$$$OOOO++.OO.OoOO++ +&O.$OX+",
"+O. OO.Ooo.O+O.Oo+ OO ++O.oOOo+++@+O#$$OOO++OOOO.OOOO++O &.O#O@+",
"+O.++O.oOO.OX+.OO+OOO X++O.OOoOO++O.O$O.OO++++OO.O+OOOOO %.oO+++",
"+O %+$.oOOOO++ .O+ OO ++O..OOOOO++OOO$O.OO++++OO.O.OOOOO.@.OO+++",
"O+++O$.oOOOO++OOO$OOO.++X .OOOOO++OO$OOOO$+%+OOO.OOOOOO..+O.OO++",
"O+%++$OO.XOO+%%%O$OO..O++O OOOO++$$OOOOOO++++O.O.OOOOOOO.+ ...O+",
"O+&X++OO.OOOO+&%OO.OO.. +O.OOO+X++$OO#OO. O+++.O.OOOOOOO.& ..OOO",
"OO++++OOOOOO.+&++X.OOO..X+.OOOO++%$O#oOO..O+++OO.OOOOOO. &O.OOOO",
"OOOO+OO.OOOo.+%+O+.OOO. ++.OOOO+++OO#OOooOO++OOO..OOO+O. & .OO$O",
"++O..OOOOOOO ++XO..OOO.O++.O#OOO+%O.##OOOOO++OOO..OOO++ X&..O$$O",
"OOO..O..OOOOX+%+O..OOO.O++.O#OOO++OoO##oOOO%%+OO..oOOOO +& .O$O+",
"+ OO.O......++&+o..OO.OO+O.OoOOO+$OoOOOooOO+%+OO...OOO+.+& .OO.O",
"+OOO.$..O.OO++++...OO.O+OOOOoOOO+$Oo#oOOoOO++OOO.OOOOXO @& .O.XO",
"+OOO.O..OO.OO++X.O.OO.OOOO.O#OOOO$OoOoOoo$O$+O.O.oOOOOO.+& .O+&X",
"+O..OO..OOOOO%+.oO.OOO OOO.OoOoOOOOoOooOoOO$O+ ..OOOOO.. + .O+++",
"+O.OOOoOOOOO+&OOoo.OOO OOOOOoOoOOOOoOOOoOOO$OO ..OOOO...O&  O+++",
"+O.OOOOOO.OO+&.Ooo.OOO.OO+ OoOoOO$OoOOOOoOO$OO.O.OOOOOO.O@ .OX++",
"X OOOOO.OO.OO+.o.o.OOO XX+ OoOO++OooOoOOoO#$OOOO.OOOOoO ++O..+++",
"&+OOOO.OOoOOO+.Ooo.OOOOXXO OOOOO+OooOooooOO$OO.O.OOOOOX O+O..+X@",
"&&+OOO.OOOOOX+OOoo.OOO +OO OOOOOOOo.OoooOOO$OO O.OOOOO+ ++O. OX+",
"&&+OoOOOOOOOX+.Ooo.OOO++$O.OOOO+OOO.ooOooOO$OO O.O..oO+ ++O. OO+",
"&&+OOOoOooOO.+OOoo.OOO+O$O.OOOOO+O.OOooooOOOOO O.O..OO+ +@O. OO+",
"&@+OOooOOOOO.OOOoo.OOOO+O.OOOOOO+OOOOoOoOOOOOOOO.OO.+XOOX@O.X.O@",
"@++OOOOOOoOO.+OOoo.O. ++XXOOOXOOOOOOOOOooO$OOOOO.OO.OXO.+&O.OOO+",
"++OOOOOOOO$ O&+.oo.OOO++++.OOXOO++O.Oo.ooOOOO+XX.OOOOOO +@O..+X@",
"+OOOOO.OOO+O+&+.oooOO+O+++.OOXOO+OO.Oo.OOO$O++XO.OOOOO+XX+OO ++%",
"+X++OOOOOOOO++XOoo.OO+ +&+.OO+OOOOO.OOOooO$O+XOO.OO.O++OX@O  ++%",
"+O+OOOOOOOOO++.Ooo.XOX++@+.OO+OOOOO.oOOooOO+&+OO.OOoOOOO.+X  OO+",
"+OOoOOOOOOOO+ OOoo.XXX&&+O.OOXXO++..oOooo$O+&+ ..OoOOOOOO+O XOOO",
"OOooOOOOoOOOO.+ooo.XO @%+OoOOXOOO+..oOOoo$O%+OOOO.OOOO+O.OO. +OO",
"$OOOOO.OOOOOO.Oooo.X  ++&+.OO+OOO+..OOOoOOO$OO.O..OOOOOO.OOO.+OO",
"OOOOOO.OOOOOOooooo.X X+++OOOO+XO++O.OoOoOO$$$O..ooOOOOOOo+OOO+O+",
"+OOoOO.OoOOOOooooo.XOO++OOO.O+XO++O.OOooOO$#$O.OO.OOOOO..+OOO$O+",
"&OOOOO.OOOOOOooOoo.+  +OOOOOO+XX++O.OoOoOOO$OOOOo+OOOOOO &OO.OO+",
"+OOOOOOOoOOOOooOoo.+XX+O..OoO+X+++OOOOOoOOoOOOOO.+ OOO+.X+O..#O+",
"X++OOOOOoOOOOOoOoo.++X+O..O..++X++O.OO..OOooOOOOO+XOOO+ X+O..$O+",
"+X++&+.OOOOOOooOoo.XXX+OOOO.O+++++O.OOOoOOO##oOOO+OOOOOO+@O.OOX%",
"+ +%&+.OOOOOOoOOooo X+++OOO.oO++++OOOOOOOOO$#.OOOXOoOOOO++O.O$+&",
"+X&@&+.OOOOOO +Oooo X++OOOO.O.O&++OoOOOoOOO$OOOoOO.oO$.O.+O.O$+&",
"@X@+@+.OOOOOOX&+.o. XX+O.OOoO.O++OOoOOooO$O$OO.o$O.OOO.O.+OoO++&",
"@X+X&O.OoOOO +&+.oO+X &+.OOOOO+++$Oo#OooO#O$OO..OOOOOOOOoOOOo++%",
"&+@X&OOOoOOO X++ooOO +%OoOOOOOO+O$Oo#OooO#O$OO.OOOOOOOOOoOOOO$%@",
"+ @ @OOOoOOOX+&O.OOOO+++OOOOOOO$O$Oo#Ooo##O$OO.OOOoOOOOOoOOOo$%+",
"+X@ @$.OoOO.X++OoOoOO+++OOOooOO++$Oo#OoO###$$O.OOOOO##O..OOOo+&+",
"++& @$.OoOoOOOOOooOOOX++OOOOoOOOO$Oo#OOO$O#$#O.OoOO$##O.oo.OOO%+",
"+X% @+.O.O.OOOOOooOOOX++OOOOOoOOO$OoOOOOO$#$$O.OOOoO$#OOoOOOOO++",
"++@X++OO.OoOOOOOoooOO++&OoO$OOOO+$OoOOOOO+#$#O.OOOo$$#OOoOOooO+X",
"++%+++OOoO.OOOOOoooOOX&&$OOOOOO++OOO$OOO++###O.OOOOO$#OOoOOooO%X"
};
